!!!!SEGMENT: pl-kk--kk-i-62--001-003_anonim--missa-credo.krn
!!!cenid: 17xx:2252
!!!COM: Anonim
!!!COM-rismID: pe30004985
!!!CDT:
!!!CNT:
!!!OPR: Missa
!!!OTL: Credo
!!!OMV: 003
!!!PDT:
!!!AGN: Sacred; Mass
!!!SMS-siglum: PL-Kk
!!!SMS-shelfmark: Kk.I.62
!!!SMS-shelfwork: 001-003 M
!!!SMS-variant:
!!!SMS-altvar:
!!!NIFC-rismSourceID: 1001157167
!!!NIFC-islandoraID: pl-kk:15700
!!!URL-pdf-islandora: https://repozytorium.nifc.pl/islandora/object/pl-kk%3A15700/datastream/PDF/view
!!!URL-scan:
!!!ONB-nifc: UWAGA: w zbiorze: 001 – Missa i 002 – Ut detus ex Agni throno. Części Mszy (001): 1. Kyrie, 2. Gloria, 3. Credo, 4. Sanctus, 5. Benedictus, 6. Agnus Dei, 7. Dona nobis.
!!!AIN: 1 alto 1 bass 1 cbass 1 empty 1 tenor 1 vox
!!!key:
**kern	**dynam	**kern	**dynam	**kern	**text	**dynam	**kern	**text	**dynam	**kern	**text	**dynam	**kern	**text	**dynam
*part6	*part6	*part5	*part5	*part4	*part4	*part4	*part3	*part3	*part3	*part2	*part2	*part2	*part1	*part1	*part1
*staff6	*	*staff5	*	*staff4	*staff4	*	*staff3	*staff3	*	*staff2	*staff2	*	*staff1	*staff1	*
*Ibass	*	*Icbass	*	*Iempty	*	*	*Itenor	*	*	*Ialto	*	*	*Ivox	*	*
*I"Baſso Accompagnato.	*	*I"Contra Baſso.	*	*I"Baſso.	*	*	*I"Tenore.	*	*	*I"Alto.	*	*	*I"Canto.	*	*
*I'bc	*	*I'cb	*	*I'B	*	*	*I'T	*	*	*I'A	*	*	*I'S	*	*
*clefF4	*	*clefF4	*	*clefF4	*	*	*clefC4	*	*	*clefC3	*	*	*clefC1	*	*
*k[]	*	*k[]	*	*k[]	*	*	*k[]	*	*	*k[]	*	*	*k[]	*	*
*C:	*	*C:	*	*C:	*	*	*C:	*	*	*C:	*	*	*C:	*	*
*M6/4	*	*M6/4	*	*M6/4	*	*	*M6/4	*	*	*M6/4	*	*	*M6/4	*	*
=1	=1	=1	=1	=1	=1	=1	=1	=1	=1	=1	=1	=1	=1	=1	=1
*	*	*	*	*	*	*	*2\right	*	*	*2\right	*	*	*2\right	*	*
!	!	!	!	!	!	!	!	!	!	!	!	!	!LO:TX:t=P:problem=all\middle&colon; global	!	!
!LO:TX:i:a:t=Andte	!LO:DY:b:t=fo:rj	!	!LO:DY:b:t=fo:rj	!LO:TX:i:a:t=Andte.	!	!	!LO:TX:i:a:t=Andte.	!	!	!LO:TX:i:a:t=Andte.	!	!	!LO:TX:i:a:t=Andte.	!	!
4C/	f	2C/	f	4C/	Cre-	.	2c\	Cre-	.	2g\	Cre-	.	2ee\	Cre-	.
4c\	.	.	.	8c\	-do	.	.	.	.	.	.	.	.	.	.
.	.	.	.	8c\	in	.	.	.	.	.	.	.	.	.	.
4c\	.	4c\	.	8c\	u-	.	4c\	-do	.	4g\	-do	.	4ee\	-do	.
.	.	.	.	8c\	-num	.	.	.	.	.	.	.	.	.	.
*2\right	*	*	*	*2\right	*	*	*	*ij	*	*	*ij	*	*	*ij	*
2c\	.	4c\	.	2c\	De-	.	2c\	Cre-	.	(>4g\	Cre-	.	(>4ee\	Cre-	.
.	.	4G\	.	.	.	.	.	.	.	4f\)	.	.	4dd\)	.	.
4C/	.	4C/	.	4C/	-um	.	4c\	-do	.	4e\	-do	.	4cc\	-do	.
*	*	*	*	*	*	*	*	*Xij	*	*	*Xij	*	*	*Xij	*
=2	=2	=2	=2	=2	=2	=2	=2	=2	=2	=2	=2	=2	=2	=2	=2
4GG/	.	2GG/	.	2GG/	Cre-	.	4G/	Pa-	.	4d\	Pa-	.	4b\	Pa-	.
4G\	.	.	.	.	.	.	8G/	-trem	.	8f\	-trem	.	8dd\	-trem	.
.	.	.	.	.	.	.	8G/	om-	.	8f\	om-	.	8dd\	om-	.
4G\	.	4G\	.	4G\	-do	.	8G/	-ni-	.	8e\	-ni-	.	8cc\	-ni-	.
.	.	.	.	.	.	.	8G/	-po-	.	8d\	-po-	.	8b\	-po-	.
*	*	*2\right	*	*	*ij	*	*	*	*	*	*	*	*	*	*
4C/	.	2E\	.	2G\	Cre-	.	2G/	-ten-	.	2e\	-ten-	.	2cc\	-ten-	.
4G\	.	.	.	.	.	.	.	.	.	.	.	.	.	.	.
4c\	.	4c\	.	4GG/	-do	.	4G/	-tem	.	4e\	-tem	.	4cc\	-tem	.
*	*	*	*	*	*Xij	*	*	*	*	*	*	*	*	*	*
!	!	!	!	!LO:LB:g=original	!	!	!	!	!	!	!	!	!LO:LB:g=original	!	!
=3	=3	=3	=3	=3	=3	=3	=3	=3	=3	=3	=3	=3	=3	=3	=3
2C/	.	4C/	.	4r	.	.	4c\	fac-	.	4r	.	.	4ee\	fac-	.
!	!	!	!	!LO:N:vis=8	!	!	!	!	!	!LO:N:vis=8	!	!	!	!	!
.	.	4c\	.	2r	.	.	8c\L	-to-	.	2r	.	.	8ee\L	-to-	.
.	.	.	.	.	.	.	8B\J	.	.	.	.	.	8dd\J	.	.
!LO:LB:g=original	!	!	!	!	!	!	!	!	!	!	!	!	!	!	!
!LO:N:vis=8.	!	!	!	!	!	!	!	!	!	!	!	!	!	!	!
4r	.	4c\	.	.	.	.	8A/L	-rem	.	.	.	.	8cc\L	-rem	.
.	.	.	.	.	.	.	8G/J	.	.	.	.	.	8b\J	.	.
!	!	!LO:PB:g=original	!	!	!	!	!LO:LB:g=original	!	!	!	!	!	!	!	!
4A\	.	8r	.	(>4A\	Cae-	.	2A\	Cae-	.	(>4f#X\	Cae-	.	2a\	Cae-	.
.	.	8A\	.	.	.	.	.	.	.	.	.	.	.	.	.
4F#X\	.	8r	.	4F#X\)	.	.	.	.	.	4a\)	.	.	.	.	.
.	.	8F#X\	.	.	.	.	.	.	.	.	.	.	.	.	.
4D\	.	8r	.	4D\	-li	.	4d\	-li	.	4f#\	-li	.	4a\	-li	.
.	.	8D\	.	.	.	.	.	.	.	.	.	.	.	.	.
!	!	!	!	!	!	!	!	!	!	!LO:LB:g=original	!	!	!	!	!
=4	=4	=4	=4	=4	=4	=4	=4	=4	=4	=4	=4	=4	=4	=4	=4
4G\	.	8G\L	.	4G\	et	.	4d\	et	.	4g\	et	.	8b/L	et	.
.	.	8B\J	.	.	.	.	.	.	.	.	.	.	8cc/J	.	.
4d\	.	4d\	.	(>4d\	ter-	.	2d\	ter-	.	(>4g\	ter-	.	(<4b/	ter-	.
4D/	.	4D\	.	4D\)	.	.	.	.	.	4f#X\)	.	.	4a/)	.	.
2G\	.	4GG/	.	2.G\	-rae	.	2.d\	-rae	.	2.g\	-rae	.	2.g/	-rae	.
.	.	4D/	.	.	.	.	.	.	.	.	.	.	.	.	.
4r	.	4G/	.	.	.	.	.	.	.	.	.	.	.	.	.
=5	=5	=5	=5	=5	=5	=5	=5	=5	=5	=5	=5	=5	=5	=5	=5
4C/	.	4C/	.	(<4C/	vi-	.	(<4G/	Vi-	.	2e\	Cre-	.	2cc\	Cre-	.
4E\	.	8E/L	.	4E\)	.	.	4c\)	.	.	.	.	.	.	.	.
.	.	8C/	.	.	.	.	.	.	.	.	.	.	.	.	.
!LO:TX:t=P:problem=wykreślona kreska taktowa	!	!	!	!	!	!	!	!	!	!	!	!	!	!	!
4G\	.	8E/	.	4G\	-si-	.	4G/	-si-	.	4e\	-do	.	4cc\	-do	.
.	.	8C/J	.	.	.	.	.	.	.	.	.	.	.	.	.
*	*	*	*	*	*	*	*	*	*	*	*ij	*	*	*ij	*
4F\	.	8F/L	.	4.Fn\	-bi-	.	4.A/	-bi-	.	2f\	Cre-	.	2cc\	Cre-	.
.	.	8C/	.	.	.	.	.	.	.	.	.	.	.	.	.
4C/	.	8F/	.	.	.	.	.	.	.	.	.	.	.	.	.
.	.	8C/	.	8C/	-li-	.	8A/	-li-	.	.	.	.	.	.	.
4FF/	.	8F/	.	4F\	-um	.	4A/	-um	.	4f\	-do	.	4cc\	-do	.
*	*	*	*	*	*	*	*	*	*	*	*	*	*	*Xij	*
.	.	8C/J	.	.	.	.	.	.	.	.	.	.	.	.	.
!	!	!	!	!	!	!	!	!	!	!	!	!	!LO:LB:g=original	!	!
=6	=6	=6	=6	=6	=6	=6	=6	=6	=6	=6	=6	=6	=6	=6	=6
4C/	.	8E/L	.	8C/	et	.	8G/	et	.	2e\	Cre-	.	2cc\	Cre-	.
.	.	8C/J	.	8C/	in	.	8G/	in-	.	.	.	.	.	.	.
!	!	!LO:LB:g=original	!	!	!	!	!	!	!	!	!	!	!	!	!
4E\	.	8E/L	.	4E\	u-	.	4c\	-vi-	.	.	.	.	.	.	.
.	.	8C/	.	.	.	.	.	.	.	.	.	.	.	.	.
4C/	.	8E/	.	4C/	-num	.	4B-X\	-si-	.	4e\	-do	.	4cc\	-do	.
.	.	8C/J	.	.	.	.	.	.	.	.	.	.	.	.	.
!	!	!	!	!LO:LB:g=original	!	!	!	!	!	!	!	!	!	!	!
*	*	*	*	*	*	*	*	*	*	*	*	*	*	*ij	*
4F\	.	8F/L	.	4.F\	D(o-	.	4.A/	-bi-	.	2f\	Cre-	.	2cc\	Cre-	.
.	.	8C/	.	.	.	.	.	.	.	.	.	.	.	.	.
4C/	.	8F/	.	.	.	.	.	.	.	.	.	.	.	.	.
.	.	8C/	.	8F\	-mi)-	.	8A/	-li-	.	.	.	.	.	.	.
4FF/	.	8AA/	.	4F\	-um	.	4A/	-um	.	4f\	-do	.	4cc\	-do	.
*	*	*	*	*	*	*	*	*	*	*	*	*	*	*Xij	*
.	.	8FF/J	.	.	.	.	.	.	.	.	.	.	.	.	.
!LO:PB:g=original	!	!	!	!	!	!	!LO:LB:g=original	!	!	!	!	!	!	!	!
=7	=7	=7	=7	=7	=7	=7	=7	=7	=7	=7	=7	=7	=7	=7	=7
4D\	.	8D\L	.	(>4D\	Vi-	.	(<4A\	Vi-	.	2f#X\	Cre-	.	2dd\	Cre-	.
.	.	8A\	.	.	.	.	.	.	.	.	.	.	.	.	.
4F#X\	.	8F#X\	.	4F#X\)	.	.	4d\)	.	.	.	.	.	.	.	.
.	.	8A\	.	.	.	.	.	.	.	.	.	.	.	.	.
4D\	.	8D\	.	4D\	-si-	.	4c\	-si-	.	4f#\	-do	.	4dd\	-do	.
.	.	8F#\J	.	.	.	.	.	.	.	.	.	.	.	.	.
*	*	*	*	*	*	*	*	*	*	*	*	*	*	*ij	*
4.G\	.	4G/	.	4.G\	-bi-	.	4.Bn\	-bi-	.	2g\	Cre-	.	2dd\	Cre-	.
.	.	4D/	.	.	.	.	.	.	.	.	.	.	.	.	.
8G\	.	.	.	8G\	-li-	.	8B\	-li-	.	.	.	.	.	.	.
4G\	.	4GG/	.	4G\	-um	.	4B\	-um	.	4g\	-do	.	4dd\	-do	.
*	*	*	*	*	*	*	*	*	*	*	*	*	*	*Xij	*
=8	=8	=8	=8	=8	=8	=8	=8	=8	=8	=8	=8	=8	=8	=8	=8
!	!	!	!	!	!	!	!	!	!	!LO:SIC:v:s=2f#	!	!	!	!	!
4D\	.	8D\L	.	8D\	et	.	8A/	et	.	2f\	Cre-	.	2dd\	Cre-	.
.	.	8A\	.	8D\	in	.	8A/	in	.	.	.	.	.	.	.
!	!	!	!	!LO:SIC:v:s=4F#	!	!	!	!	!	!	!	!	!	!	!
4F#X\	.	8F#X\	.	4F\	u-	.	4d\	u-	.	.	.	.	.	.	.
.	.	8A\	.	.	.	.	.	.	.	.	.	.	.	.	.
!	!	!	!	!	!	!	!	!	!	!LO:SIC:v:s=4f#	!	!	!	!	!
4D\	.	8F#\	.	4D\	-num	.	4c\	-num	.	4f\	-do	.	4dd\	-do	.
.	.	8D\J	.	.	.	.	.	.	.	.	.	.	.	.	.
!	!	!	!	!	!	!	!	!	!	!LO:LB:g=original	!	!	!	!	!
*	*	*	*	*	*	*	*	*	*	*	*	*	*	*ij	*
4G\	.	8G/L	.	4.G\	D(o-	.	4.B\	Do-	.	2g\	Cre-	.	2dd\	Cre-	.
.	.	8D/	.	.	.	.	.	.	.	.	.	.	.	.	.
4D\	.	8BB/	.	.	.	.	.	.	.	.	.	.	.	.	.
.	.	8D/J	.	8G\	-mi)-	.	8B\	-mi-	.	.	.	.	.	.	.
!	!	!LO:LB:g=original	!	!	!	!	!	!	!	!	!	!	!	!	!
4GG/	.	8BB/L	.	4G\	-num	.	4B\	-num	.	4g\	-do	.	4dd\	-do	.
*	*	*	*	*	*	*	*	*	*	*	*Xij	*	*	*Xij	*
.	.	8GG/J	.	.	.	.	.	.	.	.	.	.	.	.	.
=9	=9	=9	=9	=9	=9	=9	=9	=9	=9	=9	=9	=9	=9	=9	=9
2G\	.	4GG/	.	2G\	Je-	.	2B\	Je-	.	(>4dd\	Je-	.	2ff\	Je-	.
.	.	4D/	.	.	.	.	.	.	.	4b\)	.	.	.	.	.
4G\	.	4G\	.	4GG/	-sum	.	4B\	-sum	.	4g\	-sum	.	4ff\	-sum	.
!	!	!	!	!LO:PB:g=original	!	!	!	!	!	!	!	!	!LO:LB:g=original	!	!
4C/	.	4E/	.	(<4C/	Chr(i-	.	(>4c\	Chr(i-	.	(>4g\	Chri-	.	(>4ee\	Chri-	.
4D/	.	4D/	.	4D/)	.	.	4B\)	.	.	4f\)	.	.	4dd\)	.	.
4E/	.	4C/	.	4E/	-st)um	.	4c\	-st)um	.	4e\	-stum	.	4cc\	-stum	.
!	!	!	!	!	!	!	!LO:LB:g=original	!	!	!	!	!	!	!	!
=10	=10	=10	=10	=10	=10	=10	=10	=10	=10	=10	=10	=10	=10	=10	=10
4.F\	.	4D\	.	4.F\	fi-	.	4.B\	fi-	.	4.g\	fi-	.	4.dd\	fi-	.
.	.	4d\	.	.	.	.	.	.	.	.	.	.	.	.	.
8E\	.	.	.	8E\	-li-	.	8B\	-li-	.	8g\	-li-	.	8cc\	-li-	.
!LO:LB:g=original	!	!	!	!	!	!	!	!	!	!	!	!	!	!	!
4D/	.	4d\	.	4D\	-um	.	4B\	-um	.	4f\	-um	.	4b\	-um	.
4.E\	.	4C/	.	(>4.E\	De-	.	2c\	De-	.	(>4.g\	De-	.	(>4.cc\	De-	.
.	.	4G\	.	.	.	.	.	.	.	.	.	.	.	.	.
8F\	.	.	.	8F\)	.	.	.	.	.	8f\)	.	.	8dd\)	.	.
4G\	.	4c\	.	4G\	-i	.	4c\	-i	.	4e\	-i	.	4ee\	-i	.
=11	=11	=11	=11	=11	=11	=11	=11	=11	=11	=11	=11	=11	=11	=11	=11
4F\	.	8D\L	.	8F\	u-	.	8A/	u-	.	8f\	U-	.	8dd\	u-	.
.	.	8D\J	.	8F\	-ni-	.	8A/	-ni-	.	8f\	-ni-	.	8dd\	-ni-	.
4G\	.	4BB/	.	4G\	-ge-	.	4G/	-ge-	.	4e\	-ge-	.	4cc\	-ge-	.
!LO:TX:t=P:problem=wykreślona kreska taktowa	!	!	!	!	!	!	!	!	!	!	!	!	!	!	!
4GG/	.	4GG/	.	4GG/	-ni-	.	4G/	-ni-	.	4d\	-ni-	.	4b\	-ni-	.
4C/	.	4C/	.	2C/	-tum	.	2G/	-tum	.	2e\	-tum	.	2cc\	-tum	.
4E\	.	2c\	.	.	.	.	.	.	.	.	.	.	.	.	.
4C/	.	.	.	4r	.	.	4r	.	.	4r	.	.	4r	.	.
!	!	!LO:LB:g=original	!	!	!	!	!	!	!	!LO:LB:g=original	!	!	!	!	!
=12	=12	=12	=12	=12	=12	=12	=12	=12	=12	=12	=12	=12	=12	=12	=12
4c\	.	8c\L	.	8C/	Et	.	8c\	Et	.	8g\	Et	.	8cc\	Et	.
.	.	8G\	.	8C/	ex	.	8c\	ex	.	8g\	ex	.	8cc\	ex	.
!	!	!	!	!	!	!	!	!	!	!	!	!	!LO:LB:g=original	!	!
4E\	.	8c\	.	4E\	Pa-	.	4c\	Pa-	.	4g\	Pa-	.	4cc\	Pa-	.
.	.	8G\	.	.	.	.	.	.	.	.	.	.	.	.	.
4C/	.	8E\	.	4C/	-tre	.	4c\	-tre	.	4g\	-tre	.	4cc\	-tre	.
.	.	8C\J	.	.	.	.	.	.	.	.	.	.	.	.	.
4c\	.	4C/	.	(>4c\	na-	.	2c\	na-	.	2e\	na-	.	2cc\	na-	.
4G\	.	4E\	.	4G\)	.	.	.	.	.	.	.	.	.	.	.
!	!	!	!	!LO:LB:g=original	!	!	!LO:LB:g=original	!	!	!	!	!	!	!	!
4C/	.	4G\	.	4C/	-tum	.	4c\	-tum	.	4e\	-tum	.	4cc\	-tum	.
=13	=13	=13	=13	=13	=13	=13	=13	=13	=13	=13	=13	=13	=13	=13	=13
4C/	.	8E/L	.	8C/	an-	.	8c\	an-	.	8g\	an-	.	8cc\	an-	.
.	.	8C/	.	8C/	-te	.	8c\	-te	.	8g\	-te	.	8cc\	-te	.
4E/	.	8G/	.	4E\	o-	.	4c\	o-	.	4e\	o-	.	4g\	o-	.
.	.	8E/	.	.	.	.	.	.	.	.	.	.	.	.	.
4C/	.	8C/	.	8C/	-mni-	.	8c\	-mni-	.	8g\	-mni-	.	8cc\	-mni-	.
.	.	8E/J	.	8C/	-a	.	8c\	-a	.	8g\	-a	.	8b-X\	-a	.
!LO:LB:g=original	!	!	!	!	!	!	!	!	!	!	!	!	!	!	!
4F\	.	8F/L	.	8.F\	Sae-	.	8.c\	sae-	.	8.f\	Sae-	.	8.a\	Sae-	.
.	.	8C/	.	.	.	.	.	.	.	.	.	.	.	.	.
.	.	.	.	16F\	-cu-	.	16c\	-cu-	.	16f\	-cu-	.	16a\	-cu-	.
4C/	.	8AA/	.	4F\	-la	.	4c\	-la	.	4f\	-la	.	4a\	-la	.
.	.	8C/	.	.	.	.	.	.	.	.	.	.	.	.	.
4FF/	.	8AA/	.	4r	.	.	4r	.	.	4r	.	.	4r	.	.
.	.	8FF/J	.	.	.	.	.	.	.	.	.	.	.	.	.
=14	=14	=14	=14	=14	=14	=14	=14	=14	=14	=14	=14	=14	=14	=14	=14
4c\	.	4c\	.	4c\	De-	.	4c\	De-	.	4r	.	.	4r	.	.
!	!	!	!	!	!	!	!	!	!	!LO:N:vis=8	!	!	!LO:N:vis=8	!	!
8C/L	.	4r	.	(<8C/L	-um	.	8C/L	-um	.	2r	.	.	2r	.	.
8D/J	.	.	.	8D/J)	.	.	8D/J	.	.	.	.	.	.	.	.
8E\L	.	4r	.	(>8E\L	de	.	8E/L	de	.	.	.	.	.	.	.
8F\J	.	.	.	8F\J)	.	.	8F/J	.	.	.	.	.	.	.	.
!	!	!LO:LB:g=original	!	!	!	!	!	!	!	!	!	!	!LO:LB:g=original	!	!
2G\	.	8G/L	.	2G\	De-	.	(<4G/	De-	.	4d\	Cre-	.	2b\	Cre-	.
.	.	8D/	.	.	.	.	.	.	.	.	.	.	.	.	.
.	.	8BB/	.	.	.	.	4B/)	.	.	2g\	-do	.	.	.	.
.	.	8D/	.	.	.	.	.	.	.	.	.	.	.	.	.
4G\	.	8BB/	.	4G\	-o	.	4d/	-o	.	.	.	.	4b\	-do	.
.	.	8GG/J	.	.	.	.	.	.	.	.	.	.	.	.	.
!	!	!	!	!	!	!	!	!	!	!LO:LB:g=original	!	!	!	!	!
=15	=15	=15	=15	=15	=15	=15	=15	=15	=15	=15	=15	=15	=15	=15	=15
4c\	.	4C/	.	4c\	lu-	.	4c\	lu-	.	4r	.	.	4r	.	.
!	!	!	!	!	!	!	!LO:LB:g=original	!	!	!LO:N:vis=8	!	!	!LO:N:vis=8	!	!
8C/L	.	4r	.	(<8C/L	-men	.	8C/L	-men	.	2r	.	.	2r	.	.
8D/J	.	.	.	8D/J	.	.	8D/J	.	.	.	.	.	.	.	.
8E/L	.	4r	.	8E/L	de	.	8E/L	de	.	.	.	.	.	.	.
8F/J	.	.	.	8F/J)	.	.	8F/J	.	.	.	.	.	.	.	.
!	!	!	!	!LO:LB:g=original	!	!	!	!	!	!	!	!	!	!	!
4G\	.	8GG/L	.	4.G\	lu-	.	4.G/	lu-	.	(>4.b\	Cre-	.	(>4.dd\	Cre-	.
.	.	8BB/	.	.	.	.	.	.	.	.	.	.	.	.	.
4D\	.	8D/	.	.	.	.	.	.	.	.	.	.	.	.	.
.	.	8G/	.	8GG/	-mi-	.	8B\	-mi-	.	8a\)	.	.	8cc\)	.	.
4GG/	.	8B/	.	4GG/	-ne	.	4d\	-ne	.	4g\	-do	.	4b\	-do	.
.	.	8G/J	.	.	.	.	.	.	.	.	.	.	.	.	.
=16	=16	=16	=16	=16	=16	=16	=16	=16	=16	=16	=16	=16	=16	=16	=16
4B\	.	8GG/L	.	2G\	De-	.	2B\	De-	.	(>4dd\	De-	.	2ff\	De-	.
.	.	8D/	.	.	.	.	.	.	.	.	.	.	.	.	.
2G\	.	8BB/	.	.	.	.	.	.	.	4b\)	.	.	.	.	.
.	.	8D/	.	.	.	.	.	.	.	.	.	.	.	.	.
.	.	8BB/	.	4G\	-um	.	4B\	-um	.	4g\	-um	.	4ff\	-um	.
.	.	8GG/J	.	.	.	.	.	.	.	.	.	.	.	.	.
4c\	.	8r	.	4c\	ve-	.	4c\	ve-	.	4g\	ve-	.	4ee\	ve-	.
.	.	8C/	.	.	.	.	.	.	.	.	.	.	.	.	.
!LO:LB:g=original	!	!	!	!	!	!	!	!	!	!	!	!	!	!	!
4G\	.	8r	.	4G\	-rum	.	4d\	-rum	.	4g\	-rum	.	4b\	-rum	.
.	.	8G\	.	.	.	.	.	.	.	.	.	.	.	.	.
!	!	!	!	!	!	!	!LO:SIC:v:s=4f	!	!	!	!	!	!	!	!
4A\	.	8r	.	4A\	de	.	4e\	de	.	4f\	de	.	4cc\	de	.
.	.	8A\	.	.	.	.	.	.	.	.	.	.	.	.	.
!	!	!LO:LB:g=original	!	!	!	!	!	!	!	!	!	!	!	!	!
=17	=17	=17	=17	=17	=17	=17	=17	=17	=17	=17	=17	=17	=17	=17	=17
4F\	.	8D\L	.	8F\	De-	.	8f\	De-	.	8f\	De-	.	8dd\	De-	.
.	.	8F\J	.	8F\	-o	.	8d\	-o	.	8f\	-o	.	8dd\	-o	.
4G\	.	4G\	.	(>4G\	ve-	.	(>4c\	ve-	.	(>4e\	ve-	.	(>4cc\	ve-	.
!	!	!LO:TX:t=P:problem=wykreślona kreska taktowa	!	!	!	!	!	!	!	!	!	!	!	!	!
4GG/	.	4GG/	.	4GG/)	.	.	4B\)	.	.	4d\)	.	.	4b\)	.	.
!	!	!	!	!	!	!	!	!	!	!	!	!	!LO:LB:g=original	!	!
4C/	.	8C/L	.	2C/	-ro.	.	2G/	-ro.	.	2e\	-ro	.	2cc\	-ro	.
.	.	8E/	.	.	.	.	.	.	.	.	.	.	.	.	.
(<8qqB/	.	.	.	.	.	.	.	.	.	.	.	.	.	.	.
4c\)	.	8G/	.	.	.	.	.	.	.	.	.	.	.	.	.
.	.	8E/	.	.	.	.	.	.	.	.	.	.	.	.	.
4r	.	8C/	.	4r	.	.	4r	.	.	4r	.	.	4r	.	.
.	.	8E/J	.	.	.	.	.	.	.	.	.	.	.	.	.
!	!	!	!	!	!	!	!LO:LB:g=original	!	!	!	!	!	!	!	!
=18	=18	=18	=18	=18	=18	=18	=18	=18	=18	=18	=18	=18	=18	=18	=18
4C/	.	8C/L	.	(>4C/	Ge-	.	2c\	Ge-	.	2g\	Ge-	.	2ee\	ge-	.
.	.	8G/	.	.	.	.	.	.	.	.	.	.	.	.	.
4G\	.	8E/	.	4G\)	.	.	.	.	.	.	.	.	.	.	.
.	.	8G/	.	.	.	.	.	.	.	.	.	.	.	.	.
4c\	.	8C/	.	4c\	-ni-	.	4c\	-ni-	.	4g\	-ni-	.	4ee\	-ni-	.
.	.	8E/J	.	.	.	.	.	.	.	.	.	.	.	.	.
!LO:TX:t=P:problem=kreska taktowa poprawiona na 2G	!	!	!	!	!	!	!	!	!	!	!	!	!	!	!
2G\	.	8G/L	.	2G\	-tum	.	(>4B\	-tum	.	(>4f\	-tum	.	(>4dd\	-tum	.
.	.	8D/	.	.	.	.	.	.	.	.	.	.	.	.	.
.	.	8BB/	.	.	.	.	4c\)	.	.	4e\)	.	.	4cc\)	.	.
.	.	8D/	.	.	.	.	.	.	.	.	.	.	.	.	.
!	!	!	!	!	!	!	!	!	!	!LO:LB:g=original	!	!	!	!	!
4G\	.	8GG/	.	4G\	non	.	4d\	n(on)	.	4d\	n(on)	.	4b\	n(on)	.
.	.	8BB/J	.	.	.	.	.	.	.	.	.	.	.	.	.
!	!	!	!	!LO:LB:g=original	!	!	!	!	!	!	!	!	!	!	!
=19	=19	=19	=19	=19	=19	=19	=19	=19	=19	=19	=19	=19	=19	=19	=19
8c\L	.	8C/L	.	4c\	fac-	.	4G/	fac-	.	4e\	fac-	.	4ee\	fac-	.
8G\	.	8E/	.	.	.	.	.	.	.	.	.	.	.	.	.
8c\	.	8C/	.	4C/	-tum	.	4G/	-tum	.	4e\	-tum	.	4ee\	-tum	.
8G\J	.	8E/	.	.	.	.	.	.	.	.	.	.	.	.	.
4c\	.	8C/	.	8c\	Con-	.	8c\	Con-	.	8g\	Con-	.	8ee\	Con-	.
.	.	8E/J	.	8c\	-sub-	.	8c\	-sub-	.	8g\	-sub-	.	8ee\	-sub-	.
!LO:LB:g=original	!	!LO:LB:g=original	!	!	!	!	!	!	!	!	!	!	!	!	!
8AA/	.	4AA/	.	4A\	-stan-	.	4c\	-stan-	.	4f#X\	-stan-	.	4cc\	-stan-	.
(>4A\	.	.	.	.	.	.	.	.	.	.	.	.	.	.	.
.	.	4A\	.	4A\	-ti-	.	4c\	-ti-	.	4f#\	-ti-	.	4cc\	-ti-	.
4F#X\	.	.	.	.	.	.	.	.	.	.	.	.	.	.	.
.	.	4D\	.	8F#X\	-a-	.	8A\	-a-	.	8a\	-a-	.	8cc\	-a-	.
8D\)	.	.	.	8D\	-lem	.	8d\	-lem	.	8f#\	-lem	.	8cc\	-lem	.
=20	=20	=20	=20	=20	=20	=20	=20	=20	=20	=20	=20	=20	=20	=20	=20
4G\	.	8G/L	.	4G\	Pa-	.	4c\	Pa-	.	4f\	Pa-	.	4cc\	Pa-	.
.	.	8D/	.	.	.	.	.	.	.	.	.	.	.	.	.
4GG/	.	8G/	.	4GG/	-tri	.	4B\	-tri	.	4g\	-tri	.	4b\	-tri	.
.	.	8D/	.	.	.	.	.	.	.	.	.	.	.	.	.
4r	.	8BB/	.	4r	.	.	4r	.	.	4r	.	.	4r	.	.
.	.	8GG/J	.	.	.	.	.	.	.	.	.	.	.	.	.
!	!	!	!	!	!	!	!LO:LB:g=original	!	!	!LO:TX:t=P:poprawki:problem	!	!	!LO:LB:g=original	!	!
4G\	.	4r	.	4r	.	.	(>4.d\	per	.	8BL	.	.	(>4.ff\	per	.
.	.	.	.	.	.	.	.	.	.	8dJ	.	.	.	.	.
!	!	!LO:N:vis=8	!	!LO:N:vis=8	!	!	!	!	!	!LO:N:vis=8	!	!	!	!	!
4G\	.	2r	.	2r	.	.	.	.	.	2r	.	.	.	.	.
.	.	.	.	.	.	.	8c\)	.	.	.	.	.	8ee\)	.	.
4G\	.	.	.	.	.	.	4B\	quem	.	.	.	.	4dd\	quem	.
=21	=21	=21	=21	=21	=21	=21	=21	=21	=21	=21	=21	=21	=21	=21	=21
4.C/	.	8C/L	.	4.C/	O-	.	4.c\	O-	.	4.g\	O-	.	4.ee\	O-	.
.	.	8E/	.	.	.	.	.	.	.	.	.	.	.	.	.
.	.	8G/	.	.	.	.	.	.	.	.	.	.	.	.	.
8c\	.	8E/	.	8c\	-mni-	.	8B\	-mni-	.	8g\	-mni-	.	8dd\	-mni-	.
4c\	.	8C/	.	4c\	-a	.	4c\	-a	.	4e\	-a	.	4cc\	-a	.
.	.	8E/J	.	.	.	.	.	.	.	.	.	.	.	.	.
!	!	!	!	!	!	!	!	!	!	!LO:LB:g=original	!	!	!	!	!
4A\	.	8F/L	.	(>4A\	fa-	.	(<4F/	fa-	.	(>4g\	fa-	.	(>4dd\	fa-	.
.	.	8D/	.	.	.	.	.	.	.	.	.	.	.	.	.
4G\	.	8G/	.	4G\)	.	.	4E/)	.	.	4f\)	.	.	4cc\)	.	.
.	.	8F/	.	.	.	.	.	.	.	.	.	.	.	.	.
!	!	!	!	!LO:LB:g=original	!	!	!	!	!	!	!	!	!	!	!
4GG/	.	8G/	.	4GG/	-cta	.	4D/	-cta	.	4e\	-cta	.	4b\	-cta	.
.	.	8GG/J	.	.	.	.	.	.	.	.	.	.	.	.	.
=22	=22	=22	=22	=22	=22	=22	=22	=22	=22	=22	=22	=22	=22	=22	=22
8C/L	.	4C/	.	2.C/	sunt	.	2.G/	sunt	.	2.e\	sunt	.	2.cc\	sunt	.
8D/	.	.	.	.	.	.	.	.	.	.	.	.	.	.	.
8E/	.	4c\	.	.	.	.	.	.	.	.	.	.	.	.	.
8D/	.	.	.	.	.	.	.	.	.	.	.	.	.	.	.
8E/	.	4c\	.	.	.	.	.	.	.	.	.	.	.	.	.
8C/J	.	.	.	.	.	.	.	.	.	.	.	.	.	.	.
!LO:LB:g=original	!	!LO:LB:g=original	!	!	!	!	!	!	!	!	!	!	!	!	!
8.G/L	.	4C/	.	4r	.	.	4r	.	.	4r	.	.	4r	.	.
16E/Jk	.	.	.	.	.	.	.	.	.	.	.	.	.	.	.
!	!	!	!	!LO:N:vis=8	!	!	!LO:N:vis=8	!	!	!LO:N:vis=8	!	!	!LO:N:vis=8	!	!
4C/	.	4c\	.	2r	.	.	2r	.	.	2r	.	.	2r	.	.
4r	.	4c\	.	.	.	.	.	.	.	.	.	.	.	.	.
=23	=23	=23	=23	=23	=23	=23	=23	=23	=23	=23	=23	=23	=23	=23	=23
8GG/L	.	4GG/	.	4G\	qui	.	4B\	qui	.	4g\	qui	.	4b\	qui	.
8BB/	.	.	.	.	.	.	.	.	.	.	.	.	.	.	.
8D/	.	4G\	.	4G\	p(ro)p-	.	4B\	p(ro)p-	.	4.g\	p(ro)p-	.	4.dd\	p(ro)-	.
8BB/	.	.	.	.	.	.	.	.	.	.	.	.	.	.	.
8D/	.	4G\	.	4G\	-ter	.	4d\	-ter	.	.	.	.	.	.	.
8G/J	.	.	.	.	.	.	.	.	.	8g\	-ter	.	8ff\	-pter	.
4C/	.	8C/L	.	2C/	nos	.	4.e\	prop-	.	(>4.g\	nos	.	2ee\	nos	.
.	.	8E/	.	.	.	.	.	.	.	.	.	.	.	.	.
4c\	.	8G/	.	.	.	.	.	.	.	.	.	.	.	.	.
.	.	8E/	.	.	.	.	8d\	-ter	.	8f\)	.	.	.	.	.
4c\	.	8G/	.	4r	.	.	4c\	nos	.	4e\	.	.	4r	.	.
.	.	8E/J	.	.	.	.	.	.	.	.	.	.	.	.	.
!	!	!	!	!	!	!	!LO:PB:g=original	!	!	!	!	!	!LO:PB:g=original	!	!
=24	=24	=24	=24	=24	=24	=24	=24	=24	=24	=24	=24	=24	=24	=24	=24
8GG/L	.	4GG/	.	4GG/	nos	.	4G/	nos	.	4g\	nos	.	4b\	nos	.
8BB/	.	.	.	.	.	.	.	.	.	.	.	.	.	.	.
8D/	.	4G\	.	4BB/	ho-	.	4.B\	ho-	.	4g\	ho-	.	4.dd\	ho-	.
8BB/	.	.	.	.	.	.	.	.	.	.	.	.	.	.	.
8GG/	.	4G\	.	4GG/	-mi-	.	.	.	.	4g\	-mi-	.	.	.	.
8BB/J	.	.	.	.	.	.	8d\	-mi-	.	.	.	.	8ff\	-mi-	.
4C/	.	8C/L	.	2C/	-nes	.	2c\	-nes	.	2g\	-nes	.	2ee\	-nes	.
.	.	8E/	.	.	.	.	.	.	.	.	.	.	.	.	.
4G\	.	8G/	.	.	.	.	.	.	.	.	.	.	.	.	.
.	.	8E/	.	.	.	.	.	.	.	.	.	.	.	.	.
4c\	.	8G/	.	4r	.	.	4r	.	.	4r	.	.	4r	.	.
!	!	!LO:TX:i:b:t=Volti.	!	!	!	!	!	!	!	!	!	!	!	!	!
.	.	8E/J	.	.	.	.	.	.	.	.	.	.	.	.	.
!	!	!LO:PB:g=original	!	!	!	!	!	!	!	!	!	!	!	!	!
=25	=25	=25	=25	=25	=25	=25	=25	=25	=25	=25	=25	=25	=25	=25	=25
4c\	.	8C/L	.	4c\	et	.	1.r	.	.	1.r	.	.	4cc\	et	.
.	.	8E/	.	.	.	.	.	.	.	.	.	.	.	.	.
!LO:LB:g=original	!	!	!	!	!	!	!	!	!	!	!	!	!	!	!
4c\	.	8C/	.	4c\	prop-	.	.	.	.	.	.	.	4cc\	p(ro)p-	.
.	.	8E/	.	.	.	.	.	.	.	.	.	.	.	.	.
4c\	.	8C/	.	4c\	-ter	.	.	.	.	.	.	.	4cc\	-ter	.
.	.	8E/J	.	.	.	.	.	.	.	.	.	.	.	.	.
!	!	!	!	!LO:LB:g=original	!	!	!	!	!	!	!	!	!	!	!
2c\	.	8C/L	.	(>2c\	no-	.	.	.	.	.	.	.	(>2cc\	no-	.
.	.	8E/	.	.	.	.	.	.	.	.	.	.	.	.	.
.	.	8G/	.	.	.	.	.	.	.	.	.	.	.	.	.
.	.	8E/J	.	.	.	.	.	.	.	.	.	.	.	.	.
4E\	.	4C/	.	4E\)	.	.	.	.	.	.	.	.	4e/)	.	.
!	!	!	!	!	!	!	!	!	!	!LO:LB:g=original	!	!	!	!	!
=26	=26	=26	=26	=26	=26	=26	=26	=26	=26	=26	=26	=26	=26	=26	=26
4F\	.	8F/L	.	2F\	-stram	.	4r	.	.	4r	.	.	4f/	-stram	.
.	.	8C/	.	.	.	.	.	.	.	.	.	.	.	.	.
4C/	.	8AA/	.	.	.	.	4c\	no-	.	4a\	no-	.	4r	.	.
.	.	8C/	.	.	.	.	.	.	.	.	.	.	.	.	.
4FF/	.	8AA/	.	4r	.	.	4A\	-stram	.	4f\	-stram	.	4r	.	.
.	.	8FF/J	.	.	.	.	.	.	.	.	.	.	.	.	.
*	*	*	*	*	*ij	*	*	*ij	*	*	*ij	*	*	*ij	*
4D\	.	8D/L	.	4D\	no-	.	4c\	no-	.	4f#X\	no-	.	4dd\	no-	.
.	.	8F#X/	.	.	.	.	.	.	.	.	.	.	.	.	.
4A\	.	8D/	.	4A\	-stram	.	4c\	-stram	.	4f#\	-stram	.	4dd\	-stram	.
*	*	*	*	*	*Xij	*	*	*Xij	*	*	*Xij	*	*	*Xij	*
.	.	8F#/	.	.	.	.	.	.	.	.	.	.	.	.	.
4D\	.	8D/	.	4d\	Sa-	.	4c\	sa-	.	4f#\	sa-	.	4dd\	Sa-	.
.	.	8F#/J	.	.	.	.	.	.	.	.	.	.	.	.	.
=27	=27	=27	=27	=27	=27	=27	=27	=27	=27	=27	=27	=27	=27	=27	=27
4d\	.	8D\L	.	(>4d\	-lu-	.	(>4c\	-lu-	.	(>4a\	-lu-	.	(>2dd\	-lu-	.
.	.	8A\J	.	.	.	.	.	.	.	.	.	.	.	.	.
!	!	!LO:LB:g=original	!	!	!	!	!	!	!	!LO:SIC:v:s=4f#	!	!	!	!	!
4A\	.	8F#X\L	.	4A\	.	.	4A\	.	.	4f\	.	.	.	.	.
.	.	8A\	.	.	.	.	.	.	.	.	.	.	.	.	.
4D\	.	8F#\	.	4D\)	.	.	4c\)	.	.	4a\)	.	.	4cc\)	.	.
.	.	8D\J	.	.	.	.	.	.	.	.	.	.	.	.	.
!	!	!	!	!	!	!	!	!	!	!	!	!	!LO:LB:g=original	!	!
8G/L	.	4G\	.	2G\	-tem	.	2d\	-tem	.	2g\	-tem	.	2b\	-tem	.
8D/	.	.	.	.	.	.	.	.	.	.	.	.	.	.	.
8BB/	.	4GG/	.	.	.	.	.	.	.	.	.	.	.	.	.
8D/J	.	.	.	.	.	.	.	.	.	.	.	.	.	.	.
4GG/	.	4G\	.	4r	.	.	4r	.	.	4r	.	.	4r	.	.
=28	=28	=28	=28	=28	=28	=28	=28	=28	=28	=28	=28	=28	=28	=28	=28
4B\	.	8G\L	.	(>4B\	de-	.	1.r	.	.	2.b\	de-	.	2.ff\	de-	.
.	.	8G\	.	.	.	.	.	.	.	.	.	.	.	.	.
4G\	.	8G\	.	4G\	.	.	.	.	.	.	.	.	.	.	.
.	.	8D\	.	.	.	.	.	.	.	.	.	.	.	.	.
4B\	.	8G\	.	4B\)	.	.	.	.	.	.	.	.	.	.	.
.	.	8D\J	.	.	.	.	.	.	.	.	.	.	.	.	.
!LO:LB:g=original	!	!	!	!	!	!	!	!	!	!	!	!	!	!	!
4G\	.	8GG/L	.	(>4G\	-scen-	.	.	.	.	4g\	-scen-	.	4ff\	-scen-	.
.	.	8GG/	.	.	.	.	.	.	.	.	.	.	.	.	.
!	!	!LO:TX:t=P:problem=8A poprawione na 8B	!	!	!	!	!	!	!	!	!	!	!	!	!
!	!	!LO:TX:b:t=h	!	!	!	!	!	!	!	!	!	!	!	!	!
4F\	.	8BB/	.	4F\)	.	.	.	.	.	4g\	-dit	.	4b\	-dit	.
!	!	!LO:TX:t=P:problem=8A poprawione na 8B	!	!	!	!	!	!	!	!	!	!	!	!	!
!	!	!LO:TX:b:t=_	!	!	!	!	!	!	!	!	!	!	!	!	!
.	.	8BB/	.	.	.	.	.	.	.	.	.	.	.	.	.
4E\	.	8C/	.	4E\	-dit	.	.	.	.	4g\	de	.	4cc\	de	.
.	.	8C/J	.	.	.	.	.	.	.	.	.	.	.	.	.
=29	=29	=29	=29	=29	=29	=29	=29	=29	=29	=29	=29	=29	=29	=29	=29
!	!	!LO:TX:t=P:problem=mixed beam	!	!	!	!	!	!	!	!	!	!	!	!	!
4F\	.	8D\L	.	(>4F\	de	.	4G/	de	.	(>4f\	Cae-	.	(>4dd\	Cae-	.
.	.	8F\	.	.	.	.	.	.	.	.	.	.	.	.	.
!	!	!	!	!	!	!	!LO:LB:g=original	!	!	!	!	!	!	!	!
4G\	.	8G\	.	4G\)	.	.	2G/	Cae-	.	4e\	.	.	4cc\	.	.
.	.	8F\	.	.	.	.	.	.	.	.	.	.	.	.	.
4GG/	.	8G\	.	4GG/	Cae-	.	.	.	.	4d\)	.	.	4b\)	.	.
.	.	8GG/J	.	.	.	.	.	.	.	.	.	.	.	.	.
2C/	.	8C/	.	2.C/	-lis	.	2.G/	-lis	.	2.en\	-lis	.	2.cc\	-lis.	.
.	.	4c\	.	.	.	.	.	.	.	.	.	.	.	.	.
.	.	8.r	.	.	.	.	.	.	.	.	.	.	.	.	.
!LO:TX:i:b:t=Volti.	!	!	!	!	!	!	!	!	!	!	!	!	!	!	!
4r	.	.	.	.	.	.	.	.	.	.	.	.	.	.	.
.	.	8.ryy	.	.	.	.	.	.	.	.	.	.	.	.	.
!LO:PB:g=original	!	!LO:LB:g=original	!	!LO:LB:g=original	!	!	!	!	!	!LO:PB:g=original	!	!	!LO:LB:g=original	!	!
=30||	=30||	=30||	=30||	=30||	=30||	=30||	=30||	=30||	=30||	=30||	=30||	=30||	=30||	=30||	=30||
*k[b-]	*	*k[b-]	*	*k[b-]	*	*	*k[b-]	*	*	*k[b-]	*	*	*k[b-]	*	*
*M3/4	*	*M3/4	*	*M3/4	*	*	*M3/4	*	*	*M3/4	*	*	*M3/4	*	*
!LO:TX:i:a:t=Adag	!	!LO:TX:i:b:t=Et incarnatu(us)	!LO:DY:b:t=fo.:rj	!	!	!	!	!	!	!	!	!	!	!	!
!LO:TX:i:b:t=Et inca[r]natu(us)	!	!LO:TX:i:a:t=Adag.	!	!LO:TX:i:a:t=adag.	!	!	!LO:TX:i:a:t=Adag	!	!	!LO:TX:i:a:t=Adag	!	!	!LO:TX:i:a:t=adagio.	!	!
4F\	.	8FF/	f	4F\	Et	.	4F/	Et	.	4f\	Et	.	(>8cc\L	Et	.
*	*	*tremolo	*	*	*	*	*	*	*	*	*	*	*	*	*
!	!	!LO:TX:t=P:rytm:problem	!	!	!	!	!	!	!	!	!	!	!	!	!
!	!	!LO:N:vis=2.	!	!	!	!	!	!	!	!	!	!	!	!	!
.	.	8F\L	.	.	.	.	.	.	.	.	.	.	8a\J)	.	.
4C/	.	8F\	.	4C/	in-	.	4A/	in-	.	4a\	in-	.	(>8ff\L	in-	.
.	.	8F\	.	.	.	.	.	.	.	.	.	.	8cc\J)	.	.
4F\	.	8F\J	.	4F\	-Car-	.	(8c\L	-Car-	.	4f\	-Car-	.	(>8aa\L	-Car-	.
*	*	*Xtremolo	*	*	*	*	*	*	*	*	*	*	*	*	*
.	.	8Fyy\	.	.	.	.	8A\J)	.	.	.	.	.	8ff\J)	.	.
=31	=31	=31	=31	=31	=31	=31	=31	=31	=31	=31	=31	=31	=31	=31	=31
4C/	.	8r	.	4C/	-na-	.	4B-\	-na-	.	8g\L	-na-	.	(>8ee\L	-na-	.
.	.	8C/	.	.	.	.	.	.	.	16a\L	.	.	16ff\L	.	.
.	.	.	.	.	.	.	.	.	.	16b-\JJ	.	.	16gg\JJ)	.	.
4F\	.	4F\	.	4F\	-tus	.	4c\	-tus	.	4a\	-tus	.	4ff\	-tus	.
4r	.	4FF/	.	4r	.	.	4r	.	.	4r	.	.	4r	.	.
=32	=32	=32	=32	=32	=32	=32	=32	=32	=32	=32	=32	=32	=32	=32	=32
*	*	*tremolo	*	*	*	*	*	*	*	*	*	*	*	*	*
!	!	!	!	!	!	!	!	!	!LO:DY:b:t=po:rj	!	!	!LO:DY:b:t=po:rj	!	!	!LO:DY:b:t=po:rj
4C/	.	8C/L	.	(<4C/	na-	.	2G/	na-	p	(>4a\	na-	p	2cc\	na-	p
.	.	8C/	.	.	.	.	.	.	.	.	.	.	.	.	.
4D/	.	8C/	.	4D/)	.	.	.	.	.	4b-\)	.	.	.	.	.
.	.	8C/J	.	.	.	.	.	.	.	.	.	.	.	.	.
*	*	*Xtremolo	*	*	*	*	*	*	*	*	*	*	*	*	*
4E/	.	4C#X/	.	4E/	-tus	.	4G/	-tus	.	4g\	-tus	.	4b-\	-tus	.
=33	=33	=33	=33	=33	=33	=33	=33	=33	=33	=33	=33	=33	=33	=33	=33
2D/	.	2D/	.	2D/	e(st)	.	2A/	est	.	2f\	est	.	2a\	est	.
4r	.	4r	.	4r;>	.	.	4r;>	.	.	4r;>	.	.	4r;>	.	.
=34	=34	=34	=34	=34	=34	=34	=34	=34	=34	=34	=34	=34	=34	=34	=34
!	!LO:DY:b:t=fo:rj	!	!	!	!	!LO:DY:b:t=fo:rj	!	!	!	!	!	!LO:DY:b:t=fo:rj	!	!	!LO:DY:b:t=fo:rj
8C/L	f	4C/	.	(<8C/L	de	f	4B-\	de	.	4g\	de	f	4ee\	de	f
8E/J	.	.	.	8E/J)	.	.	.	.	.	.	.	.	.	.	.
!	!	!	!	!	!	!	!LO:LB:g=original	!	!	!	!	!	!	!	!
8G\L	.	4C/	.	(>8G\L	Spi-	.	4B-\	Spi-	.	4g\	Spi-	.	4ee\	Spi-	.
8B-\J	.	.	.	8B-\J)	.	.	.	.	.	.	.	.	.	.	.
!	!	!	!	!LO:LB:g=original	!	!	!	!	!	!	!	!	!	!	!
8c\L	.	4C/	.	8c\	-ri-	.	8B-\	-ri-	.	8g\	-ri-	.	8ee\	-ri-	.
8B-\J	.	.	.	8B-\	-tu	.	8B-\	-tu	.	8g\	-tu	.	8ee\	-tu	.
!	!	!	!	!	!	!	!	!	!	!LO:LB:g=original	!	!	!LO:LB:g=original	!	!
=35	=35	=35	=35	=35	=35	=35	=35	=35	=35	=35	=35	=35	=35	=35	=35
8.C/L	.	4C/	.	8.C/L	San-	.	4B-\	S(an)-	.	(>8.a\L	S(an)-	.	8.cc\L	San-	.
16E/Jk	.	.	.	16E/Jk	.	.	.	.	.	16g\Jk)	.	.	16b-\Jk	.	.
!LO:LB:g=original	!	!LO:LB:g=original	!	!	!	!	!	!	!	!	!	!	!	!	!
4F\	.	4F\	.	4F\	-cto	.	4A\	-cto,	.	4f\	-cto	.	4a\	-cto	.
4FF/	.	4r	.	4r	.	.	4r	.	.	4r	.	.	4r	.	.
=36	=36	=36	=36	=36	=36	=36	=36	=36	=36	=36	=36	=36	=36	=36	=36
!	!	!LO:TX:t=P:problem=mixed beam	!LO:DY:b:t=fo:rj	!	!	!	!	!	!	!	!	!	!	!	!
4G\	.	8GG/L	f	8G\	ex	.	8F/	ex	.	8d\	ex	.	8bn\	ex	.
.	.	8G\J	.	8G\	Ma-	.	8F/	Ma-	.	8d\	Ma-	.	8b\	Ma-	.
*	*	*tremolo	*	*	*	*	*	*	*	*	*	*	*	*	*
!	!	!LO:TX:t=P:rytm:problem	!	!	!	!	!	!	!	!	!	!	!	!	!
!	!	!LO:N:vis=2.	!	!	!	!	!	!	!	!	!	!	!	!	!
4D\	.	8G\L	.	4D\	-ri-	.	4F/	-ri-	.	4f\	-ri-	.	4dd\	-ri-	.
.	.	8G\	.	.	.	.	.	.	.	.	.	.	.	.	.
4G\	.	8G\	.	4G\	-a	.	4F/	-a	.	4d\	-a	.	4b\	-a	.
.	.	8G\J	.	.	.	.	.	.	.	.	.	.	.	.	.
*	*	*Xtremolo	*	*	*	*	*	*	*	*	*	*	*	*	*
=37	=37	=37	=37	=37	=37	=37	=37	=37	=37	=37	=37	=37	=37	=37	=37
!	!	!LO:TX:t=P:problem=mixed beam	!LO:DY:b:t=fo	!	!	!	!	!	!	!	!	!	!	!	!
4C/	.	8C/L	f	2.r	.	.	2.r	.	.	(>16e\LL	Vir-	.	(>16cc\LL	Vir-	.
.	.	.	.	.	.	.	.	.	.	16f\JJ	.	.	16dd\JJ	.	.
.	.	8c\J	.	.	.	.	.	.	.	16e\LL	-gi-	.	16cc\LL	-gi-	.
.	.	.	.	.	.	.	.	.	.	16f\JJ)	.	.	16dd\JJ)	.	.
*	*	*tremolo	*	*	*	*	*	*	*	*	*	*	*	*	*
4G\	.	8c\L	.	.	.	.	.	.	.	4g\	-ne	.	4ee\	-ne	.
.	.	8c\	.	.	.	.	.	.	.	.	.	.	.	.	.
4c\	.	8c\	.	.	.	.	.	.	.	4r	.	.	4r	.	.
.	.	8c\J	.	.	.	.	.	.	.	.	.	.	.	.	.
*	*	*Xtremolo	*	*	*	*	*	*	*	*	*	*	*	*	*
=38	=38	=38	=38	=38	=38	=38	=38	=38	=38	=38	=38	=38	=38	=38	=38
4C/	.	4c\	.	8.G\	Vir-	.	8.e\	Vir-	.	2.r	.	.	2.r	.	.
.	.	.	.	16F\	-gi-	.	16d\	-gi-	.	.	.	.	.	.	.
4c\	.	4r	.	4E\	-ne	.	4c\	-ne	.	.	.	.	.	.	.
4r	.	4r	.	4r	.	.	4r	.	.	.	.	.	.	.	.
=39	=39	=39	=39	=39	=39	=39	=39	=39	=39	=39	=39	=39	=39	=39	=39
!	!LO:DY:b:t=fo:rj	!	!	!	!	!	!	!	!	!	!	!	!	!	!
(>8G\L	f	4D/	.	8d\L	Et	.	8f\L	Et	.	4g\	et	.	4ff\	Et	.
8Bn\	.	.	.	8c\J	.	.	8e\J	.	.	.	.	.	.	.	.
8G\	.	4D/	.	8Bn\L	ho-	.	8d\L	ho-	.	4g\	ho-	.	4ff\	ho-	.
8B\	.	.	.	8A\J	.	.	8c\J	.	.	.	.	.	.	.	.
!	!	!	!	!	!	!	!LO:LB:g=original	!	!	!	!	!	!	!	!
8G\	.	4D/	.	8G\L	-mo	.	8Bn/L	-mo	.	4g\	-mo	.	4ff\	-mo	.
8B\J)	.	.	.	8F\J	.	.	8G/J	.	.	.	.	.	.	.	.
!	!	!	!	!LO:PB:g=original	!	!	!	!	!	!	!	!	!	!	!
=40	=40	=40	=40	=40	=40	=40	=40	=40	=40	=40	=40	=40	=40	=40	=40
4.c\	.	4C/	.	8.G\	fac-	.	8.E/	fa-	.	8.cc\	fac-	.	8.ee\	fa-	.
.	.	.	.	16F\	-tus	.	16A/	-ctus	.	16g\	-tus	.	16dd\	-ctus	.
!	!	!	!	!	!	!	!	!	!	!	!	!	!LO:LB:g=original	!	!
.	.	4c\	.	4E\	est	.	4G/	est.	.	4cc\	est	.	4cc\	est	.
8G\	.	.	.	.	.	.	.	.	.	.	.	.	.	.	.
4C/	.	4r	.	4r	.	.	4r	.	.	4r	.	.	4r	.	.
!	!	!LO:LB:g=original	!	!	!	!	!	!	!	!LO:LB:g=original	!	!	!	!	!
=41	=41	=41	=41	=41	=41	=41	=41	=41	=41	=41	=41	=41	=41	=41	=41
!	!	!	!	!	!	!	!	!	!	!LO:N:vis=4.	!	!	!LO:N:vis=4.	!	!
2.r;>	.	4D/	.	2.r;>	.	.	2.r;>	.	.	2a;<\	ho-	.	2ff;<\	ho-	.
.	.	4r	.	.	.	.	.	.	.	.	.	.	.	.	.
.	.	4r;>	.	.	.	.	.	.	.	(<16g/LL	.	.	(<16ee/LL	.	.
.	.	.	.	.	.	.	.	.	.	16f/JJ	.	.	16dd/JJ	.	.
.	.	.	.	.	.	.	.	.	.	16e/LL	-mo	.	16cc/LL	-mo	.
.	.	.	.	.	.	.	.	.	.	16d/JJ)	.	.	16bn/JJ)	.	.
!LO:PB:g=original	!	!	!	!	!	!	!	!	!	!	!	!	!	!	!
=42||	=42||	=42||	=42||	=42	=42	=42	=42	=42	=42	=42	=42	=42	=42	=42	=42
!	!	!	!LO:DY:b:t=ffo:rj	!	!	!	!	!	!	!	!	!	!	!	!
*	*	*	*	*	*ij	*	*	*	*	*	*	*	*	*	*
8.C/L	.	8.C/L	ff	8.C/	fac-	.	8.G/	fa-	.	8.e\	fac-	.	8.cc\	fac-	.
16C/Jk	.	16C/Jk	.	16C/	-tus	.	16G/	-ctus	.	16e\	-tus	.	16cc\	-tus	.
4C/	.	4C/	.	4C/	est	.	4G/	est.	.	4e\	est	.	4cc\	est.	.
*	*	*	*	*	*Xij	*	*	*	*	*	*	*	*	*	*
4r	.	4r	.	4r	.	.	4r	.	.	4r	.	.	4r	.	.
=43||	=43||	=43	=43	=43||	=43||	=43||	=43||	=43||	=43||	=43||	=43||	=43||	=43||	=43||	=43||
4D/	.	8A\	.	8.D/	Cru-	.	8.A/	Cru-	.	8.f#X\	Cru-	.	8.cc\	Cru-	.
.	.	4.D/	.	.	.	.	.	.	.	.	.	.	.	.	.
.	.	.	.	16D/	-ci-	.	16A/	-ci-	.	16f#\	-ci-	.	16cc\	-ci-	.
4F#X\	.	.	.	4F#X\	-fi-	.	4A/	-fi-	.	4d\	-fi-	.	4cc\	-fi-	.
4A\	.	4r	.	4A\	-xus	.	4A/	-xus	.	4f#\	-xus	.	4cc\	-xus	.
!	!	!	!	!	!	!	!LO:LB:g=original	!	!	!	!	!	!	!	!
=44	=44	=44	=44	=44	=44	=44	=44	=44	=44	=44	=44	=44	=44	=44	=44
4D\	.	4r	.	8.D/	e-	.	8.A/	e-	.	8.a\	e-	.	8.cc\	e-	.
.	.	.	.	16F\	-ti-	.	16d\	-ti-	.	16g\	-ti-	.	16b-X\	-ti-	.
4G\	.	4G\	.	4G\	-am	.	4d\	-am	.	4g\	-am	.	4b-\	-am	.
!	!	!	!	!LO:LB:g=original	!	!	!	!	!	!	!	!	!	!	!
4GG/	.	4G\	.	4r	.	.	4r	.	.	4r	.	.	4r	.	.
!	!	!	!	!	!	!	!	!	!	!	!	!	!LO:LB:g=original	!	!
=45	=45	=45	=45	=45	=45	=45	=45	=45	=45	=45	=45	=45	=45	=45	=45
4C/	.	4C/	.	4C/	pro	.	4e-X\	pro	.	4a\	pro	.	4cc\	pro	.
2D/	.	2D/	.	2D/	no-	.	(>4d\	no-	.	(>4g\	no-	.	(>4b-\	no-	.
.	.	.	.	.	.	.	4c\)	.	.	4f#X\)	.	.	4a\)	.	.
=46	=46	=46	=46	=46	=46	=46	=46	=46	=46	=46	=46	=46	=46	=46	=46
2GG/	.	4GG/	.	2GG/	-bis	.	2d\	-bis	.	2g\	-bis	.	2b-\	-bis	.
.	.	(<8qqF#X/	.	.	.	.	.	.	.	.	.	.	.	.	.
.	.	4G\)	.	.	.	.	.	.	.	.	.	.	.	.	.
!	!	!LO:LB:g=original	!	!	!	!	!	!	!	!	!	!	!	!	!
4r	.	4r	.	4r	.	.	4r	.	.	4r	.	.	4r	.	.
!	!	!	!	!	!	!	!	!	!	!LO:LB:g=original	!	!	!	!	!
=47	=47	=47	=47	=47	=47	=47	=47	=47	=47	=47	=47	=47	=47	=47	=47
(<8E/L	.	8C/L	.	4C/	sub	.	4c\	sub	.	4e\	sub	.	4g/	sub	.
8C/	.	8E/	.	.	.	.	.	.	.	.	.	.	.	.	.
8E/	.	8C/	.	8E/	pon-	.	8c\	Pon-	.	8e\	Pon-	.	8g/	Pon-	.
8C/	.	8E/	.	8G/	-ti-	.	8c\	-ti-	.	8e\	-ti-	.	8g/	-ti-	.
8E/	.	8C/	.	8C/	-o	.	8c\	-o	.	8f\	-o	.	8a/	-o	.
8CJ)	.	8E/J	.	8E/	Pi-	.	8c\	Pi-	.	8g\	Pi-	.	8b-X/	Pi-	.
=48	=48	=48	=48	=48	=48	=48	=48	=48	=48	=48	=48	=48	=48	=48	=48
!	!LO:DY:a:t=ffo	!	!	!	!	!	!	!	!	!	!	!	!	!	!
8F/L	ff	4F\	.	4F\	-la-	.	4c\	-la-	.	4g\	-la-	.	4b-\	-la-	.
8C/J	.	.	.	.	.	.	.	.	.	.	.	.	.	.	.
!LO:LB:g=original	!	!	!	!	!	!	!	!	!	!	!	!	!	!	!
8AA/L	.	4FF/	.	4FF/	-to	.	4c\	-to	.	4f\	-to	.	4a\	-to	.
8C/J	.	.	.	.	.	.	.	.	.	.	.	.	.	.	.
!LO:TX:t=P:problem=wykreślona 4r	!	!	!	!	!	!	!	!	!	!	!	!	!	!	!
4FF/	.	4r	.	4r	.	.	4r	.	.	4r	.	.	4r	.	.
=49	=49	=49	=49	=49	=49	=49	=49	=49	=49	=49	=49	=49	=49	=49	=49
8D\L	.	4D/	.	8D/	paſ-	.	8c\	paſ-	.	8f#X\	paſ-	.	8a\	paſ-	.
!	!	!	!	!	!	!	!LO:LB:g=original	!	!	!	!	!	!	!	!
8F#X\	.	.	.	8D/	-sus	.	8c\	-sus	.	8f#\	-sus	.	8a\	-sus	.
8A\	.	4D/	.	4F#X\	et	.	4d\	et	.	4g\	et	.	4bn\	et	.
8F#\	.	.	.	.	.	.	.	.	.	.	.	.	.	.	.
8D\	.	4D/	.	4D\	se-	.	4c\	se-	.	4a\	se-	.	4cc\	se-	.
8F#\J	.	.	.	.	.	.	.	.	.	.	.	.	.	.	.
!	!	!	!	!LO:LB:g=original	!	!	!	!	!	!	!	!	!	!	!
=50	=50	=50	=50	=50	=50	=50	=50	=50	=50	=50	=50	=50	=50	=50	=50
!	!	!	!	!	!	!	!	!	!	!	!	!	!LO:SIC:v:s=4bn	!	!
4G\	.	4G\	.	4G\	-pul-	.	4d\	-pul-	.	4g\	-pul-	.	4b-\	-pul-	.
!	!	!	!	!	!	!	!	!	!	!	!	!	!LO:SIC:v:s=4bn	!	!
4GG/	.	4GG/	.	4GG/	-tus	.	4d\	-tus	.	4g\	-tus	.	4b-\	-tus	.
!	!	!	!	!	!	!	!	!	!	!	!	!	!LO:LB:g=original	!	!
4r	.	4r	.	4r	.	.	4r	.	.	4r	.	.	4r	.	.
=51	=51	=51	=51	=51	=51	=51	=51	=51	=51	=51	=51	=51	=51	=51	=51
!	!	!	!	!	!	!	!	!	!LO:DY:b:t=po:rj	!	!	!LO:DY:b:t=po:rj	!	!	!LO:DY:b:t=po:rj
4C/	.	2.r;>	.	4AA/	se-	.	4A/	se-	p	4f#X\	se-	p	4cc\	se-	p
4AA/	.	.	.	4C/	-pul-	.	4A/	-pul-	.	4f#\	-pul-	.	4cc\	-pul-	.
4D/	.	.	.	4D/	-tus	.	4A/	-tus	.	4f#\	-tus	.	4cc\	-tus	.
!	!	!LO:LB:g=original	!	!	!	!	!	!	!	!	!	!	!	!	!
*	*	*	*	*	*	*	*	*	*	*	*	*	*	*	*
=52	=52	=52	=52	=52	=52	=52	=52	=52	=52	=52	=52	=52	=52	=52	=52
!	!	!LO:TX:a:t=P:problem=brak taktu	!	!	!	!	!	!	!	!	!	!	!	!	!
8G/	.	2.ryy	.	2GG/	est.	.	2.d\	est.	.	2g\	est.	.	2.b-\	est.	.
2GG/	.	.	.	.	.	.	.	.	.	.	.	.	.	.	.
.	.	.	.	4r	.	.	.	.	.	4r	.	.	.	.	.
8r;>	.	.	.	.	.	.	.	.	.	.	.	.	.	.	.
!	!	!	!	!	!	!	!	!	!	!LO:LB:g=original	!	!	!	!	!
*	*	*	*	*	*	*	*Xkcancel	*	*	*	*	*	*	*	*
=53||	=53||	=53||	=53||	=53||	=53||	=53||	=53||	=53||	=53||	=53||	=53||	=53||	=53||	=53||	=53||
*	*	*	*	*	*	*	*k[]	*	*	*k[]	*	*	*k[]	*	*
!	!	!LO:TX:i:b:t=Et resurrexit.	!	!	!	!	!LO:TX:t=P:problem=brak kasownika w źródle	!	!	!	!	!	!	!	!
!LO:TX:i:a:t=Allo	!LO:DY:b:t=fo:rj	!LO:TX:t=P:problem=brak zmiany tonacji	!	!LO:TX:i:a:t=Allo.	!	!	!	!	!	!	!	!	!LO:TX:t=P:znaki:problem= błędnie an zamiast bn	!	!
!LO:TX:t=P:problem=brak zmiany tonacji	!	!LO:TX:i:a:t=Allo	!LO:DY:b:t=ffo.:rj	!LO:TX:t=P:problem=brak zmiany tonacji	!	!	!LO:TX:i:a:t=Allo.	!	!	!	!	!	!LO:TX:i:a:t=Andte	!	!
8C/L	f	4C/	ff	4C/	Et	.	4G/	Et	.	4e\	Et	.	4cc\	Et	.
8E/J	.	.	.	.	.	.	.	.	.	.	.	.	.	.	.
!LO:LB:g=original	!	!	!	!	!	!	!	!	!	!	!	!	!	!	!
8G/L	.	4C/	.	4E\	re-	.	4G/	re-	.	4e\	re-	.	4cc\	re-	.
8E/	.	.	.	.	.	.	.	.	.	.	.	.	.	.	.
8G/	.	4C/	.	4G\	-sur-	.	4G/	-sur-	.	4e\	-sur-	.	4cc\	-sur-	.
8E/J	.	.	.	.	.	.	.	.	.	.	.	.	.	.	.
=54	=54	=54	=54	=54	=54	=54	=54	=54	=54	=54	=54	=54	=54	=54	=54
8C/L	.	4C/	.	4E\	-re-	.	4G/	-re-	.	4e\	-re-	.	4cc\	-re-	.
8E/	.	.	.	.	.	.	.	.	.	.	.	.	.	.	.
8G/	.	4c\	.	4C/	-xit	.	4G/	-xit	.	4c\	-xit	.	4g\	-xit	.
8E/J	.	.	.	.	.	.	.	.	.	.	.	.	.	.	.
4C/	.	4r	.	4r	.	.	4r	.	.	4r	.	.	4r	.	.
!	!	!	!	!	!	!	!LO:LB:g=original	!	!	!	!	!	!	!	!
=55	=55	=55	=55	=55	=55	=55	=55	=55	=55	=55	=55	=55	=55	=55	=55
8C/L	.	4c\	.	4C/	ter-	.	4c\	ter-	.	4g\	ter-	.	4ee\	ter-	.
8E/	.	.	.	.	.	.	.	.	.	.	.	.	.	.	.
8G/	.	4G\	.	4E\	-ti-	.	4c\	-ti-	.	4g\	-ti-	.	4ee\	-ti-	.
8E/	.	.	.	.	.	.	.	.	.	.	.	.	.	.	.
8G/	.	4E\	.	4G\	-a	.	4c\	-a	.	4g\	-a	.	4ee\	-a	.
8E/J	.	.	.	.	.	.	.	.	.	.	.	.	.	.	.
!	!	!	!	!LO:LB:g=original	!	!	!	!	!	!	!	!	!	!	!
=56	=56	=56	=56	=56	=56	=56	=56	=56	=56	=56	=56	=56	=56	=56	=56
8C\L	.	4C/	.	4c\	di-	.	4c\	di-	.	4g\	di-	.	4ee\	di-	.
8E\	.	.	.	.	.	.	.	.	.	.	.	.	.	.	.
8G\	.	4c\	.	4C/	-e	.	4c\	-e	.	4g\	-e	.	4cc\	-e	.
8c\	.	.	.	.	.	.	.	.	.	.	.	.	.	.	.
!LO:SIC:v:s=8Bn	!	!	!	!	!	!	!	!	!	!	!	!	!	!	!
8B-\	.	4C/	.	4r	.	.	4r	.	.	4r	.	.	4r	.	.
8c\J	.	.	.	.	.	.	.	.	.	.	.	.	.	.	.
!	!	!	!	!	!	!	!	!	!	!	!	!	!LO:LB:g=original	!	!
=57	=57	=57	=57	=57	=57	=57	=57	=57	=57	=57	=57	=57	=57	=57	=57
8C/L	.	4C/	.	4C/	se-	.	4G/	se-	.	4e\	se-	.	4cc\	se-	.
8E/	.	.	.	.	.	.	.	.	.	.	.	.	.	.	.
8G/	.	4E\	.	4E\	-cun-	.	4G/	-cun-	.	4e\	-cun-	.	4cc\	-cun-	.
8E/J	.	.	.	.	.	.	.	.	.	.	.	.	.	.	.
4C/	.	4C/	.	8C/	-dum	.	8G/	-dum	.	8e\	-dum	.	8g\	-dum	.
.	.	.	.	8E\	scri-	.	8G/	scri-	.	8e\	scri-	.	8cc\	scri-	.
=58	=58	=58	=58	=58	=58	=58	=58	=58	=58	=58	=58	=58	=58	=58	=58
8F/L	.	4F\	.	4F\	-ptu-	.	4A\	-ptu-	.	4f\	-ptu-	.	4a\	-ptu-	.
8C/	.	.	.	.	.	.	.	.	.	.	.	.	.	.	.
8AA/	.	4C/	.	4FF/	-ras	.	4c\	-ras	.	4f\	-ras	.	4a\	-ras	.
8C/J	.	.	.	.	.	.	.	.	.	.	.	.	.	.	.
!	!	!	!	!	!	!	!	!	!	!LO:LB:g=original	!	!	!	!	!
4FF/	.	4FF/	.	4r	.	.	4r	.	.	4r	.	.	4r	.	.
!LO:LB:g=original	!	!LO:LB:g=original	!	!	!	!	!	!	!	!	!	!	!	!	!
=59	=59	=59	=59	=59	=59	=59	=59	=59	=59	=59	=59	=59	=59	=59	=59
!LO:TX:t=P:problem=mixed beam	!	!	!	!	!	!	!	!	!	!	!	!	!	!	!
8GG/L	.	4G\	.	8G\	Et	.	8d\	Et	.	8d\	Et	.	8bn\	et	.
8G\	.	.	.	8G\	a-	.	8B\	a-	.	8d\	a-	.	8dd\	a-	.
!LO:SIC:v:s=8Bn	!	!	!	!LO:SIC:v:s=4Bn	!	!	!	!	!	!	!	!	!	!	!
8B-\	.	8D\L	.	4B-\	-scen-	.	4G/	-scen-	.	8dd\L	-scen-	.	8ff\L	-scen-	.
8G\	.	8G\	.	.	.	.	.	.	.	8cc\J	.	.	8ee\J	.	.
!LO:SIC:v:s=8Bn	!	!	!	!	!	!	!	!	!	!	!	!	!	!	!
8B-\	.	8D\	.	8G\	-dit	.	8B\	-dit	.	8b\	-dit	.	8dd\	-dit	.
!	!	!	!	!	!	!	!LO:LB:g=original	!	!	!	!	!	!	!	!
8G\J	.	8G\J	.	8G\	in	.	8B\	in	.	8g\	in	.	8b\	in	.
=60	=60	=60	=60	=60	=60	=60	=60	=60	=60	=60	=60	=60	=60	=60	=60
8c\L	.	8C/L	.	4c\	Cae-	.	4c\	Cae-	.	4g\	Cae-	.	4ee\	Cae-	.
8G\	.	8E/	.	.	.	.	.	.	.	.	.	.	.	.	.
8E\	.	8G/	.	4C/	-lum	.	4e\	-lum	.	4g\	-lum	.	4cc\	-lum	.
8G\	.	8E/J	.	.	.	.	.	.	.	.	.	.	.	.	.
8E\	.	4C/	.	4r	.	.	4r	.	.	4r	.	.	4r	.	.
8C\J	.	.	.	.	.	.	.	.	.	.	.	.	.	.	.
!	!	!	!	!LO:LB:g=original	!	!	!	!	!	!	!	!	!LO:PB:g=original	!	!
=61	=61	=61	=61	=61	=61	=61	=61	=61	=61	=61	=61	=61	=61	=61	=61
8GG/L	.	4GG/	.	4G\	se-	.	4B\	se-	.	4g\	se-	.	8b\L	se-	.
8D/	.	.	.	.	.	.	.	.	.	.	.	.	8dd\J	.	.
8G/	.	4D/	.	4G\	-det	.	4G/	-det	.	4g\	-det	.	8ff\L	-det	.
!LO:SIC:v:s=8Bn	!	!	!	!	!	!	!	!	!	!	!	!	!	!	!
8B-/	.	.	.	.	.	.	.	.	.	.	.	.	8dd\J	.	.
8G/	.	4G\	.	4G\	ad	.	4B\	ad	.	4g\	ad	.	8cc\L	ad	.
!LO:SIC:v:s=8Bn	!	!	!	!	!	!	!	!	!	!	!	!	!	!	!
8B-/J	.	.	.	.	.	.	.	.	.	.	.	.	8b\J	.	.
=62	=62	=62	=62	=62	=62	=62	=62	=62	=62	=62	=62	=62	=62	=62	=62
4c\	.	8C/L	.	8.c\	dex-	.	8.c\	Dex-	.	8.e\	dex-	.	8.cc\	dex-	.
.	.	8E/	.	.	.	.	.	.	.	.	.	.	.	.	.
.	.	.	.	16C/	-te-	.	16G/	-te-	.	16f\	-te-	.	16dd\	-te-	.
4G\	.	8C/	.	4C/	-ram	.	4G/	-ram	.	4g\	-ram	.	4ee\	-ram	.
.	.	8E/	.	.	.	.	.	.	.	.	.	.	.	.	.
4C/	.	8C/	.	4r	.	.	4r	.	.	4r	.	.	4r	.	.
.	.	8E/J	.	.	.	.	.	.	.	.	.	.	.	.	.
=63	=63	=63	=63	=63	=63	=63	=63	=63	=63	=63	=63	=63	=63	=63	=63
!LO:TX:t=P:problem=mixed beam	!	!	!	!	!	!	!	!	!	!	!	!	!	!	!
8F\L	.	4F\	.	(>4F\	Pa-	.	4A/	Pa-	.	(>4f\	Pa-	.	(>4dd\	Pa-	.
8D\	.	.	.	.	.	.	.	.	.	.	.	.	.	.	.
8G\	.	4G\	.	4G\	.	.	2G/	.	.	4e\	.	.	4cc\	.	.
8F\	.	.	.	.	.	.	.	.	.	.	.	.	.	.	.
8G\	.	4GG/	.	4GG/)	.	.	.	.	.	4d\)	.	.	4b\)	.	.
8GG/J	.	.	.	.	.	.	.	.	.	.	.	.	.	.	.
!	!	!LO:LB:g=original	!	!	!	!	!	!	!	!LO:LB:g=original	!	!	!	!	!
=64	=64	=64	=64	=64	=64	=64	=64	=64	=64	=64	=64	=64	=64	=64	=64
8C/L	.	4C/	.	2C/	-tris	.	2G/	-tris.	.	2e\	-tris	.	2cc\	-tris	.
8E/	.	.	.	.	.	.	.	.	.	.	.	.	.	.	.
8G/	.	8E\L	.	.	.	.	.	.	.	.	.	.	.	.	.
8E/J	.	8G\	.	.	.	.	.	.	.	.	.	.	.	.	.
4C/	.	8E\	.	4r	.	.	4r	.	.	4r	.	.	4r	.	.
.	.	8C\J	.	.	.	.	.	.	.	.	.	.	.	.	.
!LO:LB:g=original	!	!	!	!	!	!	!LO:PB:g=original	!	!	!	!	!	!	!	!
=65	=65	=65	=65	=65	=65	=65	=65	=65	=65	=65	=65	=65	=65	=65	=65
8E/L	.	4E\	.	4E\	Et	.	4Bn\	Et	.	4g#X\	Et	.	4b\	Et	.
!LO:SIC:v:s=8BBn	!	!	!	!	!	!	!	!	!	!	!	!	!	!	!
8BB-/	.	.	.	.	.	.	.	.	.	.	.	.	.	.	.
8GG#X/	.	4E\	.	8E\	i-	.	8B\	i-	.	8g#\	i-	.	8b\	i-	.
!LO:SIC:v:s=8BBn	!	!	!	!	!	!	!	!	!	!	!	!	!	!	!
8BB-/	.	.	.	8E\	-te-	.	8B\	-te-	.	8g#\	-te-	.	8b\	-te-	.
8E/	.	4E\	.	8E\	-rum	.	8B\	-rum	.	8g#\	-rum	.	8ee\	-rum	.
!LO:SIC:v:s=8BBn	!	!	!	!	!	!	!	!	!	!	!	!	!	!	!
8BB-/J	.	.	.	8E\	ven-	.	8B\	ven-	.	8g#\	ven-	.	8dd\	ven-	.
!	!	!	!	!LO:LB:g=original	!	!	!	!	!	!	!	!	!LO:LB:g=original	!	!
=66	=66	=66	=66	=66	=66	=66	=66	=66	=66	=66	=66	=66	=66	=66	=66
!LO:TX:t=P:problem=mixed beam	!	!	!	!	!	!	!	!	!	!	!	!	!	!	!
8AA/L	.	4AA/	.	4.AA/	-tu-	.	4.A/	-tu-	.	4.e\	-tu-	.	4.cc\	-tu-	.
8A\	.	.	.	.	.	.	.	.	.	.	.	.	.	.	.
8G#X\	.	8G#X\L	.	.	.	.	.	.	.	.	.	.	.	.	.
8A\	.	8A\J	.	8A\	-rus	.	8A/	-rus	.	8a\	-rus	.	8cc\	-rus	.
8AA/	.	4AA/	.	4A\	e(st)	.	4A/	est	.	4e\	est	.	4cc\	est	.
8A\J	.	.	.	.	.	.	.	.	.	.	.	.	.	.	.
=67	=67	=67	=67	=67	=67	=67	=67	=67	=67	=67	=67	=67	=67	=67	=67
8E\L	.	4E\	.	4E\	cum	.	4B\	cum	.	4g#X\	cum	.	4b\	cum	.
!LO:SIC:v:s=8G#	!	!	!	!	!	!	!	!	!	!	!	!	!	!	!
8G\	.	.	.	.	.	.	.	.	.	.	.	.	.	.	.
!LO:SIC:v:s=8Bn	!	!	!	!	!	!	!	!	!	!	!	!	!	!	!
8B-\	.	4E\	.	8E\	glo-	.	8B\	glo-	.	8g#\	glo-	.	8b\	glo-	.
!LO:SIC:v:s=8G#	!	!	!	!	!	!	!	!	!	!	!	!	!	!	!
8G\	.	.	.	16E\	-ri-	.	16B\	-ri-	.	16g#\	-ri-	.	16b\	-ri-	.
.	.	.	.	16E\	-a	.	16B\	-a	.	16g#\	-a	.	16b\	-a	.
8E\	.	4E\	.	8E\	ju-	.	8B\	ju-	.	8g#\	ju-	.	8ee\	ju-	.
8D\J	.	.	.	8E\	-di-	.	8B\	-di-	.	8g#\	-di-	.	8dd\	-di-	.
=68	=68	=68	=68	=68	=68	=68	=68	=68	=68	=68	=68	=68	=68	=68	=68
!LO:TX:t=P:problem=mixed beam	!	!	!	!	!	!	!	!	!	!	!	!	!	!	!
8C/L	.	4AA/	.	(>4A\	-ca-	.	2A/	-ca-	.	2a\	-ca-	.	2cc\	-ca-	.
8AA/	.	.	.	.	.	.	.	.	.	.	.	.	.	.	.
8C/	.	4E\	.	4E\)	.	.	.	.	.	.	.	.	.	.	.
8C/	.	.	.	.	.	.	.	.	.	.	.	.	.	.	.
8AA/	.	4A\	.	4AA/	-re	.	4A/	-re	.	4e\	-re	.	4cc\	-re	.
8A\J	.	.	.	.	.	.	.	.	.	.	.	.	.	.	.
!	!	!	!	!	!	!	!LO:LB:g=original	!	!	!LO:LB:g=original	!	!	!	!	!
=69	=69	=69	=69	=69	=69	=69	=69	=69	=69	=69	=69	=69	=69	=69	=69
!	!	!LO:TX:i:a:t=adag	!	!	!	!	!	!	!	!	!	!	!	!	!
4G#X\	.	4E\	.	4GG#X/	vi-	.	4B\	vi-	.	4g#X\	vi-	.	4b\	vi-	.
4E\	.	4r	.	4E\	-vos	.	4e\	-vos	.	4g#\	-vos	.	4b\	-vos	.
!LO:TX:i:a:t=Adag	!	!	!	!	!	!	!	!	!	!	!	!	!	!	!
4r	.	4r	.	4r	.	.	4r	.	.	4r	.	.	4r	.	.
!	!	!LO:LB:g=original	!	!	!	!	!	!	!	!	!	!	!	!	!
=70	=70	=70	=70	=70	=70	=70	=70	=70	=70	=70	=70	=70	=70	=70	=70
!	!LO:DY:b:rj	!	!LO:DY:b:t=po:rj	!	!	!	!LO:TX:i:a:t=adag	!	!	!	!	!LO:DY:b:rj	!	!	!
4F\	p	8r	p	4F\	et	.	4c\	et	.	4fn\	et	p	4a\	et	.
.	.	8F\	.	.	.	.	.	.	.	.	.	.	.	.	.
!	!	!	!	!LO:LB:g=original	!	!	!	!	!	!	!	!	!LO:LB:g=original	!	!
4E\	.	8r	.	4.D#X/	mor-	.	4.c\	mor-	.	4.f\	mor-	.	4.a\	mor-	.
.	.	8E\	.	.	.	.	.	.	.	.	.	.	.	.	.
!LO:PB:g=original	!	!	!	!	!	!	!	!	!	!	!	!	!	!	!
4D#X/	.	8r	.	.	.	.	.	.	.	.	.	.	.	.	.
.	.	8D#X\	.	8D#/	-tu-	.	8c\	-tu-	.	8f\	-tu-	.	8a\	-tu-	.
=71	=71	=71	=71	=71	=71	=71	=71	=71	=71	=71	=71	=71	=71	=71	=71
2.E;>\	.	2.E;>\	.	2.E;>\	-os.	.	2.B\	-os	.	2.e;>\	-os	.	2.g#X;>/	-os.	.
=72||	=72||	=72||	=72||	=72||	=72||	=72||	=72||	=72||	=72||	=72||	=72||	=72||	=72||	=72||	=72||
!LO:TX:i:a:t=Andte.	!LO:DY:b:t=fo:rj	!LO:TX:i:a:t=Andte.	!LO:DY:b:t=fo:rj	!	!	!	!LO:TX:i:a:t=Andte.	!	!	!	!	!	!	!	!
8C/L	f	4C/	f	8C/	Cu-	.	8G/	Cu-	.	8e\	Cu-	.	8cc\	Cu-	.
8E/	.	.	.	8C/	-jus	.	8G/	-jus	.	8e\	-jus	.	8cc\	-jus	.
8G/	.	4G\	.	(>8E\L	re-	.	4G/	re-	.	4e\	re-	.	4cc\	re-	.
8E/	.	.	.	8G\J)	.	.	.	.	.	.	.	.	.	.	.
8C/	.	4E\	.	8C/	-gni	.	8G/	-gni	.	8e\	-gni	.	8g\	-gni	.
8E/J	.	.	.	8E\	non	.	8G/	non	.	8e\	non	.	8cc\	non	.
=73	=73	=73	=73	=73	=73	=73	=73	=73	=73	=73	=73	=73	=73	=73	=73
!LO:TX:t=P:problem=mixed beam	!	!	!	!	!	!	!	!	!	!	!	!	!	!	!
8F/L	.	4F\	.	(>4F\	e-	.	2c\	e-	.	2f\	e-	.	2a\	e-	.
8C/	.	.	.	.	.	.	.	.	.	.	.	.	.	.	.
8AA/	.	4C/	.	4C/)	.	.	.	.	.	.	.	.	.	.	.
8C/	.	.	.	.	.	.	.	.	.	.	.	.	.	.	.
8FF/	.	4FF/	.	4FF/	-rit	.	4c\	-rit	.	4f\	-rit	.	4a\	-rit	.
8F\J	.	.	.	.	.	.	.	.	.	.	.	.	.	.	.
=74	=74	=74	=74	=74	=74	=74	=74	=74	=74	=74	=74	=74	=74	=74	=74
!LO:TX:t=P:rytm:problem	!	!LO:TX:t=P:rytm:problem	!	!	!	!	!	!	!	!	!	!	!	!	!
8GG/	.	8GG/	.	8GG/	non	.	8d\	non	.	8d\	non	.	8b\	non	.
*tremolo	*	*tremolo	*	*	*	*	*	*	*	*	*	*	*	*	*
!LO:N:vis=2.	!	!LO:N:vis=2.	!	!	!	!	!	!	!	!	!	!	!	!	!
!LO:TX:a:t=P:problem=tremolo jako 2.	!	!	!	!	!	!	!	!	!	!	!	!	!	!	!
8G\L	.	8G\L	.	8r	.	.	8r	.	.	8r	.	.	8r	.	.
!	!	!	!	!	!	!	!LO:LB:g=original	!	!	!LO:PB:g=original	!	!	!	!	!
8G\	.	8G\	.	4r	.	.	8d\	n(on)	.	8f\	n(on)	.	4r	.	.
8G\	.	8G\	.	.	.	.	8r	.	.	8r	.	.	.	.	.
8G\J	.	8G\J	.	4r	.	.	8B\	n(on)	.	8d\	n(on)	.	4r	.	.
*	*	*Xtremolo	*	*	*	*	*	*	*	*	*	*	*	*	*
8Gyy	.	8Gyy	.	.	.	.	8r	.	.	8r	.	.	.	.	.
*Xtremolo	*	*	*	*	*	*	*	*	*	*	*	*	*	*	*
!	!	!	!	!LO:LB:g=original	!	!	!	!	!	!	!	!	!	!	!
=75	=75	=75	=75	=75	=75	=75	=75	=75	=75	=75	=75	=75	=75	=75	=75
!LO:TX:t=P:problem=mixed beam	!	!LO:TX:t=P:problem=brak taktu	!	!	!	!	!	!	!	!	!	!	!	!	!
8C\L	.	2.ryy	.	8C/	e-	.	8G/	e-	.	8e\	e-	.	8cc\	e-	.
8E\	.	.	.	8E\	-rit	.	8G/	-rit	.	8e\	-rit	.	8cc\	-rit	.
!	!	!	!	!	!	!	!	!	!	!	!	!	!LO:LB:g=original	!	!
8G\	.	.	.	(>4G\	fi-	.	(<4G/	fi-	.	(>4e\	fi-	.	(>4cc\	fi-	.
8F\	.	.	.	.	.	.	.	.	.	.	.	.	.	.	.
8G\	.	.	.	4GG/)	.	.	4F/)	.	.	4d\)	.	.	4b\)	.	.
8GG/J	.	.	.	.	.	.	.	.	.	.	.	.	.	.	.
=76	=76	=76	=76	=76	=76	=76	=76	=76	=76	=76	=76	=76	=76	=76	=76
8C/L	.	8C/L	.	2C/	-nis	.	2G/	-nis	.	2e\	-nis	.	2cc\	-nis	.
8C/J	.	8C/J	.	.	.	.	.	.	.	.	.	.	.	.	.
!LO:LB:g=original	!	!LO:LB:g=original	!	!	!	!	!	!	!	!	!	!	!	!	!
8E\L	.	8E\L	.	.	.	.	.	.	.	.	.	.	.	.	.
8G\J	.	8G\J	.	.	.	.	.	.	.	.	.	.	.	.	.
4c\	.	4c\	.	4r	.	.	4r	.	.	4r	.	.	4r	.	.
=77	=77	=77	=77	=77	=77	=77	=77	=77	=77	=77	=77	=77	=77	=77	=77
8AA/	.	8AA/	.	8AA/	Et	.	8c\	et	.	8e\	Et	.	8a\	Et	.
*	*	*tremolo	*	*	*	*	*	*	*	*	*	*	*	*	*
!LO:TX:t=P:rytm:problem	!	!LO:TX:t=P:rytm:problem	!	!	!	!	!	!	!	!	!	!	!	!	!
!LO:N:vis=2.	!	!LO:N:vis=2.	!	!	!	!	!	!	!	!	!	!	!	!	!
4.A\	.	8A\L	.	8C/	in	.	8c\	in	.	8e\	in	.	8a\	in	.
.	.	8A\	.	4E\	Spi-	.	4e\	Spi-	.	4e\	Spi-	.	4cc\	Spi-	.
.	.	8A\J	.	.	.	.	.	.	.	.	.	.	.	.	.
*	*	*Xtremolo	*	*	*	*	*	*	*	*	*	*	*	*	*
8G#X\L	.	8G#X\L	.	8G#X\	-ri-	.	8d\	-ri-	.	8e\	-ri-	.	8b\	-ri-	.
8A\J	.	8A\J	.	8A\	-tum	.	8c\	-tum	.	8e\	-tum	.	8a\	-tum	.
=78	=78	=78	=78	=78	=78	=78	=78	=78	=78	=78	=78	=78	=78	=78	=78
!	!	!	!	!LO:SIC:v:s=4G#	!	!	!	!	!	!	!	!	!	!	!
4E\	.	4E\	.	4G\	San-	.	4B\	san-	.	4e\	S(an)-	.	4ee\	S(an)-	.
8.G#X\L	.	4E\	.	4E\	-ctum	.	4G#X/	-ctum	.	4e\	-ctum	.	4e/	-ctum	.
16F#X\Jk	.	.	.	.	.	.	.	.	.	.	.	.	.	.	.
4E\	.	4E\	.	4r	.	.	4r	.	.	4r	.	.	4r	.	.
!	!	!	!	!	!	!	!LO:LB:g=original	!	!	!	!	!	!	!	!
=79	=79	=79	=79	=79	=79	=79	=79	=79	=79	=79	=79	=79	=79	=79	=79
!LO:TX:t=P:problem=mixed beam	!	!LO:TX:t=P:problem=mixed beam	!	!	!	!	!	!	!	!	!	!	!	!	!
8AA/L	.	8AA/L	.	(>4AA/	San-	.	2c\	S(an)-	.	2e\	San-	.	(>4a\	San-	.
8A\	.	8A\	.	.	.	.	.	.	.	.	.	.	.	.	.
!LO:SIC:v:s=8G#	!	!	!	!	!	!	!	!	!	!	!	!	!	!	!
8G\	.	8G#X\	.	4E\)	.	.	.	.	.	.	.	.	4cc\)	.	.
8A\	.	8A\	.	.	.	.	.	.	.	.	.	.	.	.	.
!LO:SIC:v:s=8G#	!	!	!	!LO:PB:g=original	!	!	!	!	!	!LO:LB:g=original	!	!	!	!	!
8G\	.	8G#\	.	4A\	-ctum	.	4c\	-ctum	.	4e\	-ctum	.	4a\	-ctum	.
8A\J	.	8A\J	.	.	.	.	.	.	.	.	.	.	.	.	.
=80	=80	=80	=80	=80	=80	=80	=80	=80	=80	=80	=80	=80	=80	=80	=80
8E\L	.	4E\	.	8.E\	Spi-	.	8.B\	Spi-	.	8.b\	Do-	.	8.g#X/	Do-	.
!LO:SIC:v:s=8G#	!	!	!	!	!	!	!	!	!	!	!	!	!	!	!
8G\	.	.	.	.	.	.	.	.	.	.	.	.	.	.	.
.	.	.	.	16E\	-ri-	.	16B\	-ri-	.	16e\	-mi-	.	16g#/	-mi-	.
!LO:SIC:v:s=8Bn	!	!	!	!	!	!	!	!	!	!	!	!	!	!	!
8B-\	.	8G#X\L	.	4E\	-tum	.	4B\	-tum	.	4e\	-num	.	4g#/	-num	.
!LO:SIC:v:s=8G#	!	!LO:SIC:v:s=8Bn	!	!	!	!	!	!	!	!	!	!	!	!	!
8G\J	.	8B-\J	.	.	.	.	.	.	.	.	.	.	.	.	.
!	!	!	!	!	!	!	!	!	!	!	!	!	!LO:LB:g=original	!	!
4E\	.	4E\	.	4r	.	.	4r	.	.	4r	.	.	4r	.	.
=81	=81	=81	=81	=81	=81	=81	=81	=81	=81	=81	=81	=81	=81	=81	=81
!LO:TX:t=P:problem=mixed beam	!	!LO:TX:t=P:problem=mixed beam	!	!	!	!	!	!	!	!	!	!	!	!	!
8C/L	.	8C/L	.	8C/	San-	.	8Gn/	S(an)-	.	8e\	S(an)-	.	8cc\	S(an)-	.
8c\J	.	8c\J	.	8E\	-ctum	.	8G/	-ctum	.	8e\	-ctum	.	8cc\	-ctum	.
!	!	!LO:LB:g=original	!	!	!	!	!	!	!	!	!	!	!	!	!
*tremolo	*	*tremolo	*	*	*	*	*	*	*	*	*	*	*	*	*
8c\L	.	8c\L	.	8G\	D(o-	.	8G/	Do-	.	8e\	D(o-	.	8cc\	Do-	.
8c\	.	8c\	.	16E\	-mi)-	.	16G/	-mi-	.	16e\	-mi)-	.	16cc\	-mi-	.
.	.	.	.	16E\	-num	.	16G/	-num	.	16e\	-num	.	16cc\	-num	.
8c\	.	8c\	.	8C/	et	.	8G/	et	.	8e\	et	.	8cc\	et	.
8c\J	.	8c\J	.	8E\	vi-	.	8G/	vi-	.	8e\	vi-	.	8cc\	vi-	.
*Xtremolo	*	*Xtremolo	*	*	*	*	*	*	*	*	*	*	*	*	*
!LO:LB:g=original	!	!	!	!	!	!	!	!	!	!	!	!	!	!	!
=82	=82	=82	=82	=82	=82	=82	=82	=82	=82	=82	=82	=82	=82	=82	=82
!	!	!LO:TX:t=P:problem=brak taktu	!	!	!	!	!	!	!	!	!	!	!	!	!
8G\L	.	2.ryy	.	(>4G\	-vi-	.	2G/	-vi-	.	2e\	-vi-	.	(>4cc\	-vi-	.
8c\	.	.	.	.	.	.	.	.	.	.	.	.	.	.	.
8E\	.	.	.	4E\)	.	.	.	.	.	.	.	.	4g\)	.	.
8G\	.	.	.	.	.	.	.	.	.	.	.	.	.	.	.
8C\	.	.	.	4C/	-fi-	.	4G/	-fi-	.	4e\	-fi-	.	4cc\	-fi-	.
8E\J	.	.	.	.	.	.	.	.	.	.	.	.	.	.	.
=83	=83	=83	=83	=83	=83	=83	=83	=83	=83	=83	=83	=83	=83	=83	=83
!LO:TX:t=P:problem=mixed beam	!	!LO:TX:t=P:problem=mixed beam	!	!	!	!	!	!	!	!	!	!	!	!	!
8F/L	.	8FF/L	.	4F\	-can-	.	4c\	-can-	.	4f\	-can-	.	4a\	-can-	.
8C/	.	8F\J	.	.	.	.	.	.	.	.	.	.	.	.	.
!	!	!	!	!	!	!	!LO:LB:g=original	!	!	!	!	!	!	!	!
*	*	*tremolo	*	*	*	*	*	*	*	*	*	*	*	*	*
8AA/	.	8F\L	.	4FF/	-tem	.	4c\	-tem	.	4f\	-tem	.	4f/	-tem	.
8C/	.	8F\	.	.	.	.	.	.	.	.	.	.	.	.	.
!	!	!	!	!LO:LB:g=original	!	!	!	!	!	!	!	!	!	!	!
8FF/	.	8F\	.	4r	.	.	4r	.	.	4r	.	.	4r	.	.
8F\J	.	8F\J	.	.	.	.	.	.	.	.	.	.	.	.	.
*	*	*Xtremolo	*	*	*	*	*	*	*	*	*	*	*	*	*
=84	=84	=84	=84	=84	=84	=84	=84	=84	=84	=84	=84	=84	=84	=84	=84
!LO:TX:t=P:problem=mixed beam	!	!LO:TX:t=P:problem=mixed beam	!	!	!	!	!	!	!	!	!	!	!	!	!
8G\L	.	8GG/L	.	8G\	qui	.	8B\	qui	.	8g\	qui	.	8dd\	qui	.
!	!	!	!	!LO:SIC:v:s=8Bn	!	!	!	!	!	!	!	!	!	!	!
8GG/	.	8G\J	.	8B-\	ex	.	8B\	ex	.	8g\	ex	.	8dd\	ex	.
*	*	*tremolo	*	*	*	*	*	*	*	*	*	*	*	*	*
!LO:SIC:v:s=8BBn	!	!	!	!	!	!	!	!	!	!LO:LB:g=original	!	!	!	!	!
8BB-/	.	8G\L	.	8G\	Pa-	.	8B\	Pa-	.	8g\	Pa-	.	8dd\	Pa-	.
!	!	!	!	!LO:SIC:v:s=8Bn	!	!	!	!	!	!	!	!	!	!	!
8D/	.	8G\	.	8B-\	-tre	.	8B\	-tre	.	8g\	-tre	.	8dd\	-tre	.
!LO:SIC:v:s=8BBn	!	!	!	!	!	!	!	!	!	!	!	!	!LO:LB:g=original	!	!
8BB-/	.	8G\	.	8G\	fi-	.	8B\	fi-	.	8g\	fi-	.	8dd\	fi-	.
8GG/J	.	8G\J	.	16G\	-li-	.	16B\	-li-	.	16g\	-li-	.	16dd\	-li-	.
*	*	*Xtremolo	*	*	*	*	*	*	*	*	*	*	*	*	*
.	.	.	.	16G\	-o-	.	16B\	-o-	.	16g\	-o-	.	16dd\	-o-	.
=85	=85	=85	=85	=85	=85	=85	=85	=85	=85	=85	=85	=85	=85	=85	=85
!LO:SIC:v:s=8BBn	!	!	!	!LO:SIC:v:s=4BBn	!	!	!	!	!	!LO:TX:t=P:problem=t. 85-86 po poprawkach głównego skryptora	!	!	!	!	!
8BB-/L	.	8G/L	.	(<4BB-/	-que	.	(>4d\	-que	.	2g\	-que	.	(>4ff\	-que	.
8D/	.	8D/	.	.	.	.	.	.	.	.	.	.	.	.	.
!	!	!LO:SIC:v:s=8BBn	!	!	!	!	!	!	!	!	!	!	!	!	!
8G/	.	8BB-/	.	4D/)	.	.	4B\)	.	.	.	.	.	4dd\)	.	.
8D/	.	8D/	.	.	.	.	.	.	.	.	.	.	.	.	.
!LO:SIC:v:s=8BBn	!	!LO:SIC:v:s=8BBn	!	!	!	!	!	!	!	!	!	!	!	!	!
8BB-/	.	8BB-/	.	4GG/	pro-	.	4B\	pro-	.	4g\	pro-	.	4b\	pro-	.
8GG/J	.	8GG/J	.	.	.	.	.	.	.	.	.	.	.	.	.
=86	=86	=86	=86	=86	=86	=86	=86	=86	=86	=86	=86	=86	=86	=86	=86
8C/L	.	4C/	.	(<8.E/L	-ce-	.	8.e\L	-ce-	.	(>8.e\L	-ce-	.	8.cc\L	-ce-	.
8GG/	.	.	.	.	.	.	.	.	.	.	.	.	.	.	.
.	.	.	.	16D/Jk)	.	.	16d\Jk	.	.	16f\Jk)	.	.	16dd\Jk	.	.
8C/	.	4GG/	.	4C/	-dit	.	4c\	-dit	.	4g\	-dit	.	4ee\	-dit	.
8GG/J	.	.	.	.	.	.	.	.	.	.	.	.	.	.	.
4CC/	.	4C/	.	4r	.	.	4r	.	.	4r	.	.	4r	.	.
=87	=87	=87	=87	=87	=87	=87	=87	=87	=87	=87	=87	=87	=87	=87	=87
8C/L	.	4C/	.	8E/	qui	.	8c\	qui	.	8e\	Qui	.	8cc\	Qui	.
8E/	.	.	.	8C/	cum	.	8c\	cum	.	8e\	cum	.	8g/	cum	.
!	!	!	!	!LO:LB:g=original	!	!	!LO:LB:g=original	!	!	!	!	!	!	!	!
8G/	.	4E\	.	4E\	Pa-	.	4c\	Pa-	.	4e\	Pa-	.	(>8cc\L	Pa-	.
8E/J	.	.	.	.	.	.	.	.	.	.	.	.	8b-X\J)	.	.
!LO:LB:g=original	!	!	!	!	!	!	!	!	!	!	!	!	!	!	!
8A\L	.	8F\L	.	8F\	-tre	.	8c\	-tre	.	8f\	-tre	.	8a\	-tre	.
8G\J	.	8E\J	.	8E\	et	.	8c\	et	.	8e\	et	.	8g\	et	.
=88	=88	=88	=88	=88	=88	=88	=88	=88	=88	=88	=88	=88	=88	=88	=88
8F/L	.	4F\	.	4.F\	fi-	.	4.c\	fi-	.	4.f\	fi-	.	4.a\	fi-	.
8C/	.	.	.	.	.	.	.	.	.	.	.	.	.	.	.
!	!	!LO:LB:g=original	!	!	!	!	!	!	!	!	!	!	!	!	!
8AA/	.	4C/	.	.	.	.	.	.	.	.	.	.	.	.	.
!	!	!	!	!	!	!	!	!	!	!LO:LB:g=original	!	!	!	!	!
8C/	.	.	.	8C/	-li-	.	8c\	-li-	.	8f\	-li-	.	8a\	-li-	.
8AA/	.	4FF/	.	4FF/	-o	.	4c\	-o	.	4f\	-o	.	4a\	-o	.
8FF/J	.	.	.	.	.	.	.	.	.	.	.	.	.	.	.
!	!	!	!	!	!	!	!	!	!	!	!	!	!LO:LB:g=original	!	!
=89	=89	=89	=89	=89	=89	=89	=89	=89	=89	=89	=89	=89	=89	=89	=89
8D\L	.	4D/	.	8D/	si-	.	8f\	si-	.	8a\	si-	.	8dd\	si-	.
8F\	.	.	.	8D/	-mul	.	8f\	-mul	.	8a\	-mul	.	8dd\	-mul	.
8D\	.	4D/	.	4C/	a-	.	(>8d\L	a-	.	4g#X\	a-	.	8ff\L	a-	.
8F\	.	.	.	.	.	.	8c\J	.	.	.	.	.	8ee\J	.	.
8D\	.	4D/	.	4D/	-do-	.	8B\L	-do-	.	4a\	-do-	.	8dd\L	-do-	.
8F\J	.	.	.	.	.	.	8A\J)	.	.	.	.	.	8cc\J	.	.
=90	=90	=90	=90	=90	=90	=90	=90	=90	=90	=90	=90	=90	=90	=90	=90
!	!	!	!	!	!	!	!	!	!	!LO:SIC:v:s=4g#	!	!	!	!	!
4E\	.	4E\	.	4E\	-ra-	.	4B\	-ra-	.	4g\	-ra-	.	4bn\	-ra-	.
.	.	(<8qqd#X/	.	.	.	.	.	.	.	.	.	.	.	.	.
8EE/	.	4e\)	.	8E\	-tur	.	8E/	-tur	.	8e\	-tur	.	8e/	-tur	.
8r	.	.	.	8r	.	.	8e\	-et	.	8r	.	.	8ee\	et	.
4r	.	4r	.	4r	.	.	8e\	con-	.	4r	.	.	8ee\	con-	.
.	.	.	.	.	.	.	8e\	-glo-	.	.	.	.	8ee\	-glo-	.
=91	=91	=91	=91	=91	=91	=91	=91	=91	=91	=91	=91	=91	=91	=91	=91
8A/L	.	4AA/	.	(>4A\	-ri-	.	2c\	-ri-	.	2a\	-ri-	.	(>4cc\	-ri-	.
8E/	.	.	.	.	.	.	.	.	.	.	.	.	.	.	.
8C/	.	4A\	.	4E\)	.	.	.	.	.	.	.	.	4a\)	.	.
8E/	.	.	.	.	.	.	.	.	.	.	.	.	.	.	.
8C/	.	4A\	.	4AA/	-fi-	.	4c\	-fi-	.	4a\	-fi-	.	4cc\	-fi-	.
8AA/J	.	.	.	.	.	.	.	.	.	.	.	.	.	.	.
!	!	!	!	!	!	!	!LO:LB:g=original	!	!	!	!	!	!	!	!
=92	=92	=92	=92	=92	=92	=92	=92	=92	=92	=92	=92	=92	=92	=92	=92
8E\L	.	4E\	.	4E\	-ca-	.	4B\	-ca-	.	4g#X\	-ca-	.	4b\	-ca-	.
8E\J	.	.	.	.	.	.	.	.	.	.	.	.	.	.	.
8G#X\L	.	4E\	.	4E\	-tur	.	4B\	-tur	.	4e\	-tur	.	4g#X/	-tur	.
!LO:SIC:v:s=8Bn	!	!	!	!	!	!	!	!	!	!	!	!	!	!	!
8B-\J	.	.	.	.	.	.	.	.	.	.	.	.	.	.	.
!LO:LB:g=original	!	!	!	!LO:LB:g=original	!	!	!	!	!	!	!	!	!	!	!
8E\L	.	4E\	.	4r	.	.	4r	.	.	4r	.	.	4r	.	.
8E\J	.	.	.	.	.	.	.	.	.	.	.	.	.	.	.
=93	=93	=93	=93	=93	=93	=93	=93	=93	=93	=93	=93	=93	=93	=93	=93
*	*	*tremolo	*	*	*	*	*	*	*	*	*	*	*	*	*
8D\L	.	8F/L	.	8D/	qui	.	8B\	qui	.	8d\	qui	.	8ff\	qui	.
8F\	.	8D/	.	8D/	lo-	.	8B\	lo-	.	8d\	lo-	.	8ff\	lo-	.
!	!	!	!	!	!	!	!	!	!	!LO:LB:g=original	!	!	!LO:LB:g=original	!	!
8D\	.	8F/	.	8F\	-cu-	.	8A/	-cu-	.	8f\	-cu-	.	8dd\	-cu-	.
8F\	.	8D/	.	8F\	-tus	.	8A/	-tus	.	8f\	-tus	.	8dd\	-tus	.
8D\	.	8F/	.	4D\	e(st)	.	4F/	est	.	4g#X\	e(st)	.	4b\	e(st)	.
8F\J	.	8D/J	.	.	.	.	.	.	.	.	.	.	.	.	.
*	*	*Xtremolo	*	*	*	*	*	*	*	*	*	*	*	*	*
!	!	!LO:LB:g=original	!	!	!	!	!	!	!	!	!	!	!	!	!
=94	=94	=94	=94	=94	=94	=94	=94	=94	=94	=94	=94	=94	=94	=94	=94
!LO:SIC:v:s=8E	!	!LO:SIC:v:s=4E	!	!	!	!	!	!	!	!	!	!	!	!	!
8F\L	.	4D\	.	8E\	per	.	4r	.	.	8e\	p(er)	.	8cc\	p(er)	.
8D\J	.	.	.	8F\	pro-	.	.	.	.	8a\	pro-	.	8dd\	pro-	.
*tremolo	*	*	*	*	*	*	*	*	*	*	*	*	*	*	*
8E\L	.	4E\	.	2E\	-phe-	.	8B\	p(er)	.	(>4a\	-phe-	.	(>4cc\	-phe-	.
8E\	.	.	.	.	.	.	8B\	pro-	.	.	.	.	.	.	.
!	!	!	!	!	!	!	!	!	!	!LO:SIC:v:s=4g#	!	!	!	!	!
8E\	.	4E\	.	.	.	.	4B\	-phe-	.	4g\)	.	.	4b\)	.	.
8E\J	.	.	.	.	.	.	.	.	.	.	.	.	.	.	.
*Xtremolo	*	*	*	*	*	*	*	*	*	*	*	*	*	*	*
=95	=95	=95	=95	=95	=95	=95	=95	=95	=95	=95	=95	=95	=95	=95	=95
8AA/L	.	8C/L	.	4AA/	-tas	.	4c\	-tas	.	4e\	-tas	.	4a\	-tas.	.
8C/	.	8AA/J	.	.	.	.	.	.	.	.	.	.	.	.	.
8E/	.	8C/L	.	4r	.	.	4r	.	.	4r	.	.	4r	.	.
8G#X/J	.	8E/J	.	.	.	.	.	.	.	.	.	.	.	.	.
4A\	.	4AA/	.	4r	.	.	4r	.	.	4r	.	.	4r	.	.
=96	=96	=96	=96	=96	=96	=96	=96	=96	=96	=96	=96	=96	=96	=96	=96
8C\L	.	8C/L	.	4C/	Et	.	4G/	Et	.	4e\	Et	.	4cc\	Et	.
8G\	.	8C/	.	.	.	.	.	.	.	.	.	.	.	.	.
8E\	.	8E/	.	8E\	u-	.	8G/	u-	.	8e\	u-	.	8cc\	u-	.
8G\	.	8E/	.	8E\	-nam	.	8G/	-nam	.	8e\	-nam	.	8cc\	-nam	.
!	!	!	!	!	!	!	!LO:LB:g=original	!	!	!	!	!	!	!	!
8C\	.	8C/	.	4C/	S(an)-	.	4G/	S(an)-	.	4e\	San-	.	4cc\	S(an)-	.
8E\J	.	8C/J	.	.	.	.	.	.	.	.	.	.	.	.	.
=97	=97	=97	=97	=97	=97	=97	=97	=97	=97	=97	=97	=97	=97	=97	=97
8C\L	.	8C/L	.	8E\	-ctam	.	8G/	-ctam	.	8e\	-ctam	.	8cc\	-ctam	.
!	!	!	!	!LO:LB:g=original	!	!	!	!	!	!	!	!	!	!	!
8G\	.	8C/	.	8E\	Ca-	.	8G/	Ca-	.	8e\	Ca-	.	8cc\	Ca-	.
8E\	.	8E/	.	8.G\	-tho-	.	8.G/	-tho-	.	8.e\	-tho-	.	8.cc\	-tho-	.
8G\	.	8E/	.	.	.	.	.	.	.	.	.	.	.	.	.
!	!	!	!	!	!	!	!	!	!	!LO:LB:g=original	!	!	!	!	!
.	.	.	.	16G\	-li-	.	16G/	-li-	.	16e\	-li-	.	16cc\	-li-	.
8C\	.	8C/	.	4C/	-cam	.	4G/	-cam	.	4e\	-cam	.	4cc\	-cam	.
8E\J	.	8C/J	.	.	.	.	.	.	.	.	.	.	.	.	.
!	!	!	!	!	!	!	!	!	!	!	!	!	!LO:PB:g=original	!	!
=98	=98	=98	=98	=98	=98	=98	=98	=98	=98	=98	=98	=98	=98	=98	=98
!LO:TX:t=P:problem=mixed beam	!	!LO:TX:t=P:problem=mixed beam	!	!	!	!	!	!	!	!	!	!	!	!	!
8GG/L	.	8GG/L	.	4G\	et	.	4B\	et	.	4f\	Et	.	4dd\	et	.
8G\J	.	8G\J	.	.	.	.	.	.	.	.	.	.	.	.	.
!LO:SIC:v:s=8Bn	!	!LO:LB:g=original	!	!LO:SIC:v:s=8Bn	!	!	!	!	!	!	!	!	!	!	!
*	*	*tremolo	*	*	*	*	*	*	*	*	*	*	*	*	*
8B-\L	.	8G\L	.	8B-\	A-	.	8B\	A-	.	8g\	A-	.	8dd\	A-	.
8G\J	.	8G\	.	8G\	-po-	.	8B\	-po-	.	8g\	-po-	.	8dd\	-po-	.
!LO:LB:g=original	!	!	!	!	!	!	!	!	!	!	!	!	!	!	!
8D/L	.	8G\	.	8G\	-sto-	.	8B\	-sto-	.	8g\	-sto-	.	8dd\	-sto-	.
!LO:SIC:v:s=8BBn	!	!	!	!	!	!	!	!	!	!	!	!	!	!	!
8BB-/J	.	8G\J	.	8G\	-li-	.	8B\	-li-	.	8g\	-li-	.	8dd\	-li-	.
*	*	*Xtremolo	*	*	*	*	*	*	*	*	*	*	*	*	*
=99	=99	=99	=99	=99	=99	=99	=99	=99	=99	=99	=99	=99	=99	=99	=99
!LO:TX:t=P:problem=brak taktu	!	!LO:TX:t=P:problem=brak taktu	!	!	!	!	!	!	!	!	!	!	!	!	!
2.ryy	.	2.ryy	.	8GG/	-cam	.	8B\	-cam	.	8g\	-cam	.	8dd\	-cam	.
!	!	!	!	!LO:SIC:v:s=8BBn	!	!	!	!	!	!	!	!	!	!	!
.	.	.	.	8BB-/	Ec-	.	8B\	Ec-	.	8g\	Ec-	.	8dd\	Ec-	.
.	.	.	.	8.D/	-cle-	.	8.B\	-cle-	.	8.g\	-cle-	.	8.dd\	-cle-	.
.	.	.	.	16G\	-si-	.	16B\	-si-	.	16g\	-si-	.	16dd\	-si-	.
.	.	.	.	4G\	-am	.	4B\	-am	.	4g\	-am	.	4dd\	-am	.
!	!	!	!	!	!	!	!LO:PB:g=original	!	!	!	!	!	!	!	!
=100	=100	=100	=100	=100	=100	=100	=100	=100	=100	=100	=100	=100	=100	=100	=100
!	!	!	!	!	!	!	!	!	!	!LO:TX:a:t=g	!	!	!	!	!
!	!	!	!	!	!	!	!	!	!	!LO:TX:t=P:problem=t. 100-101 dźwięki a poprawione na g	!	!	!	!	!
8C\L	.	4C/	.	4C/	Con-	.	4c\	Con-	.	4g\	Con-	.	4ee\	Con-	.
8G\	.	.	.	.	.	.	.	.	.	.	.	.	.	.	.
8E\	.	4E\	.	4.C/	-fi-	.	4.c\	-fi-	.	4.g\	-fi-	.	4.ee\	-fi-	.
8G\	.	.	.	.	.	.	.	.	.	.	.	.	.	.	.
8C\	.	4C/	.	.	.	.	.	.	.	.	.	.	.	.	.
8E\J	.	.	.	8G\	-te-	.	8B\	-te-	.	8g\	-te-	.	8ee\	-te-	.
!	!	!	!	!LO:LB:g=original	!	!	!	!	!	!	!	!	!	!	!
=101	=101	=101	=101	=101	=101	=101	=101	=101	=101	=101	=101	=101	=101	=101	=101
!LO:TX:t=P:problem=mixed beam	!	!	!	!	!	!	!	!	!	!	!	!	!	!	!
8C/L	.	8C/L	.	8c\	-or	.	8e\	-or	.	8g\	-or	.	8ee\	-or	.
8c\J	.	8C/	.	8C/	u-	.	8c\	u-	.	8g\	u-	.	8ee\	u-	.
!	!	!	!	!	!	!	!	!	!	!LO:LB:g=original	!	!	!	!	!
*tremolo	*	*	*	*	*	*	*	*	*	*	*	*	*	*	*
8c\L	.	8E/	.	8E/	-num	.	8c\	-num	.	8g\	-num	.	8ee\	-num	.
8c\	.	8C/	.	8C/	bap-	.	8c\	bap-	.	8g\	bap-	.	8ee\	bap-	.
8c\	.	8E/	.	8E\	-ti-	.	8c\	-ti-	.	8g\	-ti-	.	8ee\	-ti-	.
8c\J	.	8G/J	.	8G\	-sma	.	8c\	-sma	.	8g\	-sma	.	8ee\	-sma	.
*Xtremolo	*	*	*	*	*	*	*	*	*	*	*	*	*	*	*
!	!	!	!	!	!	!	!	!	!	!	!	!	!LO:LB:g=original	!	!
=102	=102	=102	=102	=102	=102	=102	=102	=102	=102	=102	=102	=102	=102	=102	=102
8F\L	.	4D\	.	8D/	in	.	8A/	in	.	8d\	in	.	8ff\	in	.
8F\	.	.	.	8D/	re-	.	8A/	re-	.	8d\	re-	.	8ff\	re-	.
8D\	.	4F\	.	8F\	-miſ-	.	8A/	-miſ-	.	8d\	-miſ-	.	8dd\	-miſ-	.
8D\	.	.	.	8F\	-si-	.	8A/	-si-	.	8d\	-si-	.	8dd\	-si-	.
8E\	.	4GG#X/	.	8G#X\	-o-	.	8d\	-o-	.	8f\	-o-	.	8b\	-o-	.
8E\J	.	.	.	8G#\	-nem	.	8d\	-nem	.	8f\	-nem	.	8b\	-nem	.
=103	=103	=103	=103	=103	=103	=103	=103	=103	=103	=103	=103	=103	=103	=103	=103
8AA/L	.	4AA/	.	8A\	pec-	.	8c\	pec-	.	8e\	pec-	.	8cc\	pec-	.
8AA/	.	.	.	8A\	-ca-	.	8c\	-ca-	.	8e\	-ca-	.	8cc\	-ca-	.
!	!	!	!	!	!	!	!LO:LB:g=original	!	!	!	!	!	!	!	!
8F/	.	4F\	.	(>4F\	-to-	.	2F/	-to-	.	2a\	-to-	.	2cc\	-to-	.
8F/	.	.	.	.	.	.	.	.	.	.	.	.	.	.	.
8D#X/	.	4D#X/	.	4D#X/)	.	.	.	.	.	.	.	.	.	.	.
8D#/J	.	.	.	.	.	.	.	.	.	.	.	.	.	.	.
=104	=104	=104	=104	=104	=104	=104	=104	=104	=104	=104	=104	=104	=104	=104	=104
8E\L	.	4E\	.	4E\	-rum	.	4E/	-rum	.	4g#X\	-rum	.	4b\	-rum	.
8G#X\	.	.	.	.	.	.	.	.	.	.	.	.	.	.	.
!	!	!LO:TX:t=P:problem=mixed beam	!	!LO:LB:g=original	!	!	!	!	!	!	!	!	!	!	!
8A\	.	8A\L	.	4A\	Et	.	4c\	Et	.	4a\	Et	.	4ee\	Et	.
8E\	.	8AA/	.	.	.	.	.	.	.	.	.	.	.	.	.
8A\	.	8A\	.	4A\	ex-	.	4c\	ex-	.	4a\	ex-	.	4ee\	ex-	.
8E\J	.	8AA/J	.	.	.	.	.	.	.	.	.	.	.	.	.
!LO:LB:g=original	!	!LO:LB:g=original	!	!	!	!	!	!	!	!	!	!	!	!	!
=105	=105	=105	=105	=105	=105	=105	=105	=105	=105	=105	=105	=105	=105	=105	=105
!LO:TX:t=P:problem=mixed beam	!	!	!	!	!	!	!	!	!	!	!	!	!	!	!
8C/L	.	4C/	.	4A\	-pe-	.	4c\	-pe-	.	4a\	-pe-	.	4ee\	-pe-	.
8AA/	.	.	.	.	.	.	.	.	.	.	.	.	.	.	.
!	!	!LO:TX:t=P:problem=mixed beam	!	!	!	!	!	!	!	!LO:LB:g=original	!	!	!	!	!
8A\	.	8AA/L	.	4AA/	-cto	.	4c\	-cto	.	4e\	-cto	.	4cc\	-cto	.
8A\J	.	8A\	.	.	.	.	.	.	.	.	.	.	.	.	.
!LO:TX:t=P:problem=mixed beam	!	!	!	!	!	!	!	!	!	!	!	!	!	!	!
8A\L	.	8A\	.	4r	.	.	4r	.	.	4r	.	.	4r	.	.
8AA/J	.	8A\J	.	.	.	.	.	.	.	.	.	.	.	.	.
=106	=106	=106	=106	=106	=106	=106	=106	=106	=106	=106	=106	=106	=106	=106	=106
8D\L	.	4D\	.	8D\	re-	.	8A/	re-	.	8f\	re-	.	8a\	re-	.
8d\J	.	.	.	8D\	-sur-	.	8A/	-sur-	.	8f\	-sur-	.	8a\	-sur-	.
*tremolo	*	*	*	*	*	*	*	*	*	*	*	*	*	*	*
8d\L	.	4F\	.	8F\	-re-	.	8A/	-re-	.	8d\	-re-	.	8ff\	-re-	.
8d\	.	.	.	8F\	-cti-	.	8A/	-cti-	.	8d\	-cti-	.	8ff\	-cti-	.
!	!	!	!	!	!	!	!	!	!	!	!	!	!LO:LB:g=original	!	!
8d\	.	4D\	.	8D/	-o-	.	8A/	-o-	.	8f\	-o-	.	8dd\	-o-	.
8d\J	.	.	.	8D/	-nem	.	8A/	-nem	.	8f\	-nem	.	8dd\	-nem	.
=107	=107	=107	=107	=107	=107	=107	=107	=107	=107	=107	=107	=107	=107	=107	=107
*	*	*tremolo	*	*	*	*	*	*	*	*	*	*	*	*	*
!	!LO:DY:b:t=fo:rj	!	!LO:DY:b:t=fo:rj	!	!	!	!	!	!	!	!	!	!	!	!
8E\L	f	8E\L	f	2.E\	Mor-	.	2.e\	Mor-	.	2.a\	Mor-	.	2.cc\	Mor-	.
8E\	.	8E\	.	.	.	.	.	.	.	.	.	.	.	.	.
8E\	.	8E\	.	.	.	.	.	.	.	.	.	.	.	.	.
8E\	.	8E\	.	.	.	.	.	.	.	.	.	.	.	.	.
8E\	.	8E\	.	.	.	.	.	.	.	.	.	.	.	.	.
8E\J	.	8E\J	.	.	.	.	.	.	.	.	.	.	.	.	.
=108	=108	=108	=108	=108	=108	=108	=108	=108	=108	=108	=108	=108	=108	=108	=108
8E\L	.	8E\L	.	2.E\	-tu-	.	2.d\	-tu-	.	2.g#X\	-tu-	.	2.b\	-tu-	.
8E\	.	8E\	.	.	.	.	.	.	.	.	.	.	.	.	.
8E\	.	8E\	.	.	.	.	.	.	.	.	.	.	.	.	.
8E\	.	8E\	.	.	.	.	.	.	.	.	.	.	.	.	.
8E\	.	8E\	.	.	.	.	.	.	.	.	.	.	.	.	.
8E\J	.	8E\J	.	.	.	.	.	.	.	.	.	.	.	.	.
=109	=109	=109	=109	=109	=109	=109	=109	=109	=109	=109	=109	=109	=109	=109	=109
8D#X/L	.	8D#X/L	.	2.D#X\	-o-	.	2.c\	-o-	.	2.f\	-o-	.	2.a\	-o-	.
8D#/	.	8D#/	.	.	.	.	.	.	.	.	.	.	.	.	.
8D#/	.	8D#/	.	.	.	.	.	.	.	.	.	.	.	.	.
8D#/	.	8D#/	.	.	.	.	.	.	.	.	.	.	.	.	.
8D#/	.	8D#/	.	.	.	.	.	.	.	.	.	.	.	.	.
8D#/J	.	8D#/J	.	.	.	.	.	.	.	.	.	.	.	.	.
*Xtremolo	*	*Xtremolo	*	*	*	*	*	*	*	*	*	*	*	*	*
!	!	!	!	!	!	!	!LO:LB:g=original	!	!	!	!	!	!	!	!
=110	=110	=110	=110	=110	=110	=110	=110	=110	=110	=110	=110	=110	=110	=110	=110
8E\L	.	8E\L	.	2.E\	-rum	.	2.B\	-rum	.	2.e\	-rum	.	2.g#X/	-rum	.
8E\	.	8E\	.	.	.	.	.	.	.	.	.	.	.	.	.
8E\	.	8E\	.	.	.	.	.	.	.	.	.	.	.	.	.
8E\J	.	8E\J	.	.	.	.	.	.	.	.	.	.	.	.	.
!	!LO:DY:b:t=ffo	!	!LO:DY:b:t=ffo	!	!	!	!	!	!	!	!	!	!	!	!
4E;>\	ff	4E;>\	ff	.	.	.	.	.	.	.	.	.	.	.	.
!LO:PB:g=original	!	!LO:PB:g=original	!	!LO:LB:g=original	!	!	!	!	!	!	!	!	!	!	!
=111||	=111||	=111||	=111||	=111	=111	=111	=111	=111	=111	=111	=111	=111	=111	=111	=111
!LO:TX:i:a:t=Allo.	!LO:DY:b:t=fo:rj	!LO:TX:a:i:t=Allo.	!LO:DY:b:t=fo:rj	!	!	!	!	!	!	!	!	!	!	!	!
4C/	f	4C/	f	4c\	Et	.	4c\	Et	.	4cc\	Et	.	4cc\	Et	.
4c\	.	4c\	.	4c\	vi-	.	4c\	vi-	.	4cc\	vi-	.	4cc\	vi-	.
4c\	.	4c\	.	4c\	-tam	.	4c\	-tam	.	4cc\	-tam	.	4cc\	-tam	.
!	!	!	!	!	!	!	!	!	!	!LO:PB:g=original	!	!	!	!	!
=112	=112	=112	=112	=112	=112	=112	=112	=112	=112	=112	=112	=112	=112	=112	=112
4c\	.	4c\	.	4c\	ven-	.	4c\	ven-	.	4cc\	ven-	.	4cc\	ven-	.
4G\	.	4G\	.	4G\	-tu-	.	4G/	-tu-	.	4g\	-tu-	.	4g/	-tu-	.
4E\	.	4E\	.	4E\	-ri	.	4E/	-ri	.	4e\	-ri	.	4e/	-ri	.
=113	=113	=113	=113	=113	=113	=113	=113	=113	=113	=113	=113	=113	=113	=113	=113
4A\	.	4A\	.	4A\	sae-	.	4A/	sae-	.	4a\	Sae-	.	4a/	Sae-	.
4F\	.	4F\	.	4F\	-cu-	.	4F/	-cu-	.	4f\	-cu-	.	4f/	-cu-	.
4D\	.	4D\	.	4D\	-li	.	4D/	-li	.	4d\	-li	.	4d/	-li	.
!	!	!	!	!	!	!	!	!	!	!	!	!	!LO:LB:g=original	!	!
=114	=114	=114	=114	=114	=114	=114	=114	=114	=114	=114	=114	=114	=114	=114	=114
8GG/L	.	4GG/	.	2.GG/	A-	.	2.B\	A-	.	2.g\	A-	.	(<4g/	A-	.
8G/	.	.	.	.	.	.	.	.	.	.	.	.	.	.	.
!LO:SIC:v:s=8Bn	!	!LO:SIC:v:s=8Bn	!	!	!	!	!	!	!	!	!	!	!	!	!
8B-/	.	8B-\L	.	.	.	.	.	.	.	.	.	.	4dd\)	.	.
8G/	.	8G\	.	.	.	.	.	.	.	.	.	.	.	.	.
!LO:SIC:v:s=8Bn	!	!LO:SIC:v:s=8Bn	!	!	!	!	!	!	!	!	!	!	!	!	!
8B-/	.	8B-\	.	.	.	.	.	.	.	.	.	.	4ff\	.	.
8G/J	.	8G\J	.	.	.	.	.	.	.	.	.	.	.	.	.
=115	=115	=115	=115	=115	=115	=115	=115	=115	=115	=115	=115	=115	=115	=115	=115
8c\L	.	8c\L	.	4C/	-men	.	4G/	-men	.	4cc\	-men	.	4ee\	-men	.
8G\	.	8G\	.	.	.	.	.	.	.	.	.	.	.	.	.
8c\	.	8c\	.	4r	.	.	4r	.	.	4r	.	.	4r	.	.
8G\	.	8G\	.	.	.	.	.	.	.	.	.	.	.	.	.
!LO:SIC:v:s=8Bn	!	!LO:SIC:v:s=8Bn	!	!	!	!	!	!	!	!	!	!	!	!	!
*	*	*	*	*	*ij	*	*	*	*	*	*ij	*	*	*ij	*
8B-\	.	8B-\	.	4G\	A-	.	4G/	a-	.	4b\	A-	.	4dd\	A-	.
8G\J	.	8G\J	.	.	.	.	.	.	.	.	.	.	.	.	.
!	!	!LO:LB:g=original	!	!	!	!	!LO:LB:g=original	!	!	!	!	!	!	!	!
=116	=116	=116	=116	=116	=116	=116	=116	=116	=116	=116	=116	=116	=116	=116	=116
8c\L	.	8c\L	.	4C/	-men	.	4G/	-men	.	4cc\	-men	.	4ee\	-men	.
8G\	.	8G\	.	.	.	.	.	.	.	.	.	.	.	.	.
8c\	.	8c\	.	4r	.	.	4r	.	.	4r	.	.	4r	.	.
8G\	.	8G\	.	.	.	.	.	.	.	.	.	.	.	.	.
!LO:SIC:v:s=8Bn	!	!LO:SIC:v:s=8Bn	!	!	!	!	!	!	!	!	!	!	!	!	!
*	*	*	*	*	*Xij	*	*	*ij	*	*	*	*	*	*	*
8B-\	.	8B-\	.	4G\	A-	.	4G/	a-	.	4b\	A-	.	4dd\	A-	.
8G\J	.	8G\J	.	.	.	.	.	.	.	.	.	.	.	.	.
!LO:LB:g=original	!	!	!	!LO:PB:g=original	!	!	!	!	!	!	!	!	!	!	!
=117	=117	=117	=117	=117	=117	=117	=117	=117	=117	=117	=117	=117	=117	=117	=117
!LO:TX:t=P:problem=mixed beam	!	!	!	!	!	!	!LO:SIC:v:s=4c	!	!	!	!	!	!	!	!
8c\L	.	8C/L	.	4C/	-men	.	4B\	-men	.	4cc\	-men	.	4ee\	-men	.
*	*	*	*	*	*	*	*	*Xij	*	*	*Xij	*	*	*Xij	*
8C/J	.	8E/	.	.	.	.	.	.	.	.	.	.	.	.	.
!	!	!	!	!	!	!	!	!	!	!LO:LB:g=original	!	!	!	!	!
8E/L	.	8G/	.	2C/	a-	.	(<4G/	A-	.	4e\	A-	.	4cc\	a-	.
8G/J	.	8E/	.	.	.	.	.	.	.	.	.	.	.	.	.
8c\L	.	8G/	.	.	.	.	4B-X/)	.	.	4g\	-men	.	4cc\	-men	.
8c\J	.	8E/J	.	.	.	.	.	.	.	.	.	.	.	.	.
=118	=118	=118	=118	=118	=118	=118	=118	=118	=118	=118	=118	=118	=118	=118	=118
8F/L	.	8F/L	.	2.C/	.	.	2.A/	.	.	2.f\	A-	.	2.cc\	a-	.
8C/	.	8C/	.	.	.	.	.	.	.	.	.	.	.	.	.
8F/	.	8F/	.	.	.	.	.	.	.	.	.	.	.	.	.
8C/	.	8C/	.	.	.	.	.	.	.	.	.	.	.	.	.
8F/	.	8F/	.	.	.	.	.	.	.	.	.	.	.	.	.
8C/J	.	8C/J	.	.	.	.	.	.	.	.	.	.	.	.	.
=119	=119	=119	=119	=119	=119	=119	=119	=119	=119	=119	=119	=119	=119	=119	=119
2C/	.	2C/	.	2C/	-men	.	2G/	-men	.	2e\	-men	.	2cc\	-men	.
4r	.	4r	.	4r	.	.	4r	.	.	4r	.	.	4r	.	.
==	==	==	==	==	==	==	==	==	==	==	==	==	==	==	==
*-	*-	*-	*-	*-	*-	*-	*-	*-	*-	*-	*-	*-	*-	*-	*-
!!!system-decoration: [(s1,s2,s3,s4)][(s5,s6)]
!!!RDF**kern: > = above
!!!RDF**kern: < = below
!!!EED: Antoni Szymański
!!!EEV: 2021-08-09
!!!ENC: Katarzyna Serwa
!!!END: 2021-07-09
